;FLAVOR:Marlin
;TIME:1327
;Filament used: 0.59392m
;Layer height: 0.2
;MINX:69.512
;MINY:81.513
;MINZ:0.3
;MAXX:150.488
;MAXY:138.487
;MAXZ:7.9
;Generated with Cura_SteamEngine 4.11.0
M140 S45
M105
M190 S45
M104 S205
M105
M109 S205
M82 ;absolute extrusion mode
; Ender 3 Custom Start G-code
G92 E0 ; Reset Extruder
G28 ; Home all axes
G1 Z2.0 F3000 ; Move Z Axis up little to prevent scratching of Heat Bed
G1 X0.1 Y20 Z0.3 F5000.0 ; Move to start position
G1 X0.1 Y200.0 Z0.3 F1500.0 E15 ; Draw the first line
G1 X0.4 Y200.0 Z0.3 F5000.0 ; Move to side a little
G1 X0.4 Y20 Z0.3 F1500.0 E30 ; Draw the second line
G92 E0 ; Reset Extruder
G1 Z2.0 F3000 ; Move Z Axis up little to prevent scratching of Heat Bed
G1 X5 Y20 Z0.3 F5000.0 ; Move over to prevent blob squish
G92 E0
G92 E0
G1 F1200 E-4.5
;LAYER_COUNT:40
;LAYER:0
M107
G0 F10800 X74.34 Y85.488 Z0.3
;TYPE:SKIRT
G1 F1200 E0
G1 F2100 X75.091 Y84.845 E0.04932
G1 X75.481 Y84.54 E0.07403
G1 X76.214 Y84.014 E0.11904
G1 X76.433 Y83.87 E0.13211
G1 X77.112 Y83.457 E0.17176
G1 X77.3 Y83.352 E0.18251
G1 X77.923 Y83.03 E0.21749
G1 X78.124 Y82.934 E0.22861
G1 X79.188 Y82.493 E0.28607
G1 X79.814 Y82.271 E0.3192
G1 X80.933 Y81.94 E0.37742
G1 X81.608 Y81.797 E0.41185
G1 X82.119 Y81.706 E0.43774
G1 X83.01 Y81.585 E0.4826
G1 X83.221 Y81.565 E0.49318
G1 X84.146 Y81.517 E0.53939
G1 X84.535 Y81.513 E0.55879
G1 X85.398 Y81.538 E0.60187
G1 X85.632 Y81.554 E0.61357
G1 X86.139 Y81.6 E0.63897
G1 X86.339 Y81.623 E0.64901
G1 X86.791 Y81.685 E0.67177
G1 X86.88 Y81.699 E0.67627
G1 X87.701 Y81.86 E0.71801
G1 X89.53 Y82.292 E0.81177
G1 X92.058 Y82.85 E0.94093
G1 X94.537 Y83.326 E1.06686
G1 X97.001 Y83.723 E1.19138
G1 X99.52 Y84.058 E1.31816
G1 X101.983 Y84.315 E1.4417
G1 X104.541 Y84.508 E1.56969
G1 X107.016 Y84.627 E1.69331
G1 X109.532 Y84.675 E1.81885
G1 X112.092 Y84.651 E1.94658
G1 X114.578 Y84.558 E2.07069
G1 X117.07 Y84.394 E2.19529
G1 X119.608 Y84.155 E2.32247
G1 X122.092 Y83.849 E2.44733
G1 X124.586 Y83.471 E2.57318
G1 X127.087 Y83.02 E2.69997
G1 X129.477 Y82.518 E2.82181
G1 X130.881 Y82.181 E2.89384
G1 X131.057 Y82.147 E2.90279
G1 X131.611 Y82.014 E2.93121
G1 X131.957 Y81.937 E2.94889
G1 X132.739 Y81.776 E2.98873
G1 X133.976 Y81.594 E3.05111
G1 X134.3 Y81.565 E3.06733
G1 X135.281 Y81.521 E3.11633
G1 X135.624 Y81.521 E3.13344
G1 X136.112 Y81.532 E3.15779
G1 X136.292 Y81.54 E3.16678
G1 X136.688 Y81.565 E3.18658
G1 X136.961 Y81.587 E3.20024
G1 X137.83 Y81.692 E3.24391
G1 X138.022 Y81.723 E3.25361
G1 X138.735 Y81.862 E3.28985
G1 X138.948 Y81.911 E3.30076
G1 X139.504 Y82.054 E3.3294
G1 X140.03 Y82.216 E3.35686
G1 X140.488 Y82.369 E3.38095
G1 X141.446 Y82.739 E3.43219
G1 X141.634 Y82.822 E3.44244
G1 X142.174 Y83.078 E3.47225
G1 X142.42 Y83.203 E3.48602
G1 X143.129 Y83.597 E3.52649
G1 X143.339 Y83.724 E3.53873
G1 X144.209 Y84.308 E3.59101
G1 X144.614 Y84.609 E3.61618
G1 X145.566 Y85.404 E3.67806
G1 X145.875 Y85.693 E3.69917
G1 X146.508 Y86.337 E3.74422
G1 X146.713 Y86.563 E3.75944
G1 X147.397 Y87.394 E3.81314
G1 X147.654 Y87.74 E3.83464
G1 X148.252 Y88.634 E3.8883
G1 X148.416 Y88.907 E3.90419
G1 X148.628 Y89.275 E3.92538
G1 X148.678 Y89.366 E3.93056
G1 X149.082 Y90.18 E3.9759
G1 X149.265 Y90.59 E3.9983
G1 X149.619 Y91.487 E4.04641
G1 X149.679 Y91.661 E4.05559
G1 X149.807 Y92.056 E4.07631
G1 X149.914 Y92.409 E4.09471
G1 X150.137 Y93.266 E4.13889
G1 X150.17 Y93.418 E4.14665
G1 X150.332 Y94.364 E4.19453
G1 X150.396 Y94.867 E4.21983
G1 X150.482 Y96.037 E4.27836
G1 X150.488 Y96.34 E4.29348
G1 X150.482 Y96.99 E4.32591
G1 X150.475 Y97.168 E4.33479
G1 X150.415 Y97.955 E4.37417
G1 X150.047 Y101.272 E4.54067
G1 X149.832 Y103.842 E4.66934
G1 X149.695 Y106.324 E4.79335
G1 X149.626 Y108.853 E4.91957
G1 X149.63 Y111.378 E5.04555
G1 X149.704 Y113.893 E5.17107
G1 X149.849 Y116.392 E5.29596
G1 X150.062 Y118.867 E5.41989
G1 X150.195 Y120.002 E5.47691
G1 X150.216 Y120.287 E5.49116
G1 X150.417 Y122.079 E5.58113
G1 X150.484 Y123.106 E5.63247
G1 X150.488 Y123.327 E5.6435
G1 X150.481 Y123.982 E5.67618
G1 X150.472 Y124.199 E5.68702
G1 X150.382 Y125.212 E5.73776
G1 X150.308 Y125.761 E5.76539
G1 X150.166 Y126.583 E5.80701
G1 X150.12 Y126.799 E5.81803
G1 X149.932 Y127.551 E5.8567
G1 X149.913 Y127.617 E5.86013
G1 X149.714 Y128.236 E5.89257
G1 X149.577 Y128.624 E5.91309
G1 X149.225 Y129.501 E5.96024
G1 X149.071 Y129.841 E5.97886
G1 X148.651 Y130.672 E6.02532
G1 X148.552 Y130.849 E6.03543
G1 X148.35 Y131.195 E6.05542
G1 X148.187 Y131.463 E6.07107
G1 X147.624 Y132.3 E6.1214
G1 X147.446 Y132.54 E6.1363
G1 X146.938 Y133.175 E6.17687
G1 X146.692 Y133.46 E6.19566
G1 X145.913 Y134.274 E6.25187
G1 X145.684 Y134.49 E6.26757
G1 X144.908 Y135.157 E6.31862
G1 X144.515 Y135.464 E6.3435
G1 X143.786 Y135.986 E6.38824
G1 X143.567 Y136.13 E6.40131
G1 X142.888 Y136.543 E6.44096
G1 X142.7 Y136.648 E6.45171
G1 X142.077 Y136.97 E6.48669
G1 X141.876 Y137.066 E6.49781
G1 X140.812 Y137.507 E6.55527
G1 X140.186 Y137.729 E6.58841
G1 X139.067 Y138.06 E6.64662
G1 X138.392 Y138.203 E6.68105
G1 X137.881 Y138.294 E6.70694
G1 X136.99 Y138.415 E6.7518
G1 X136.779 Y138.435 E6.76238
G1 X135.854 Y138.483 E6.80859
G1 X135.465 Y138.487 E6.828
G1 X134.602 Y138.462 E6.87107
G1 X134.368 Y138.446 E6.88277
G1 X133.861 Y138.4 E6.90817
G1 X133.661 Y138.377 E6.91821
G1 X133.209 Y138.315 E6.94097
G1 X133.12 Y138.301 E6.94547
G1 X132.299 Y138.14 E6.98721
G1 X130.47 Y137.708 E7.08097
G1 X127.942 Y137.15 E7.21013
G1 X125.463 Y136.674 E7.33606
G1 X122.999 Y136.277 E7.46058
G1 X120.48 Y135.942 E7.58736
G1 X118.017 Y135.685 E7.71091
G1 X115.459 Y135.492 E7.83889
G1 X112.984 Y135.373 E7.96251
G1 X110.468 Y135.325 E8.08806
G1 X107.908 Y135.349 E8.21578
G1 X105.422 Y135.442 E8.33989
G1 X102.93 Y135.606 E8.46449
G1 X100.392 Y135.845 E8.59167
G1 X97.908 Y136.151 E8.71653
G1 X95.414 Y136.529 E8.84238
G1 X92.913 Y136.98 E8.96917
G1 X90.523 Y137.482 E9.09101
G1 X89.119 Y137.819 E9.16304
G1 X88.943 Y137.853 E9.17199
G1 X88.383 Y137.987 E9.20071
G1 X88.053 Y138.06 E9.21758
G1 X87.269 Y138.222 E9.25752
G1 X86.024 Y138.406 E9.3203
G1 X85.7 Y138.435 E9.33653
G1 X84.719 Y138.479 E9.38552
G1 X84.376 Y138.479 E9.40264
G1 X83.888 Y138.468 E9.42699
G1 X83.708 Y138.46 E9.43598
G1 X83.312 Y138.435 E9.45577
G1 X83.039 Y138.413 E9.46944
G1 X82.17 Y138.308 E9.51311
G1 X81.978 Y138.277 E9.52281
G1 X81.265 Y138.138 E9.55905
G1 X81.052 Y138.089 E9.56996
G1 X80.496 Y137.946 E9.5986
G1 X79.97 Y137.784 E9.62606
G1 X79.512 Y137.631 E9.65015
G1 X78.563 Y137.265 E9.70089
G1 X78.37 Y137.18 E9.71141
G1 X77.804 Y136.911 E9.74268
G1 X77.563 Y136.788 E9.75618
G1 X76.925 Y136.435 E9.79256
G1 X76.734 Y136.321 E9.80365
G1 X75.825 Y135.716 E9.85813
G1 X75.401 Y135.402 E9.88445
G1 X74.42 Y134.583 E9.94821
G1 X74.111 Y134.293 E9.96935
G1 X73.492 Y133.662 E10.01345
G1 X73.287 Y133.436 E10.02867
G1 X72.607 Y132.609 E10.08209
G1 X72.349 Y132.262 E10.10366
G1 X71.741 Y131.354 E10.15818
G1 X71.572 Y131.072 E10.17458
G1 X71.319 Y130.627 E10.20012
G1 X70.916 Y129.816 E10.2453
G1 X70.734 Y129.408 E10.26759
G1 X70.392 Y128.545 E10.3139
G1 X70.33 Y128.367 E10.32331
G1 X70.185 Y127.921 E10.3467
G1 X70.079 Y127.569 E10.36504
G1 X69.848 Y126.663 E10.41169
G1 X69.816 Y126.511 E10.41944
G1 X69.668 Y125.636 E10.46371
G1 X69.604 Y125.134 E10.48896
G1 X69.518 Y123.949 E10.54824
G1 X69.512 Y123.629 E10.5642
G1 X69.522 Y122.903 E10.60043
G1 X69.53 Y122.734 E10.60887
G1 X69.586 Y122.034 E10.6439
G1 X69.953 Y118.728 E10.80985
G1 X70.168 Y116.158 E10.93852
G1 X70.305 Y113.676 E11.06254
G1 X70.374 Y111.147 E11.18875
G1 X70.37 Y108.622 E11.31473
G1 X70.296 Y106.107 E11.44026
G1 X70.151 Y103.608 E11.56514
G1 X69.935 Y101.103 E11.69058
G1 X69.806 Y99.999 E11.74603
G1 X69.788 Y99.753 E11.75834
G1 X69.582 Y97.919 E11.85041
G1 X69.516 Y96.894 E11.90166
G1 X69.512 Y96.674 E11.91263
G1 X69.519 Y96.018 E11.94536
G1 X69.528 Y95.801 E11.9562
G1 X69.618 Y94.788 E12.00694
G1 X69.692 Y94.239 E12.03457
G1 X69.841 Y93.387 E12.07773
G1 X69.89 Y93.16 E12.08931
G1 X70.08 Y92.408 E12.12801
G1 X70.096 Y92.353 E12.13087
G1 X70.283 Y91.772 E12.16132
G1 X70.42 Y91.383 E12.18189
G1 X70.786 Y90.474 E12.23078
G1 X70.941 Y90.134 E12.24942
G1 X71.344 Y89.337 E12.29398
G1 X71.445 Y89.156 E12.30432
G1 X71.653 Y88.799 E12.32493
G1 X71.813 Y88.536 E12.34029
G1 X72.376 Y87.7 E12.39058
G1 X72.554 Y87.46 E12.40548
G1 X73.072 Y86.814 E12.4468
G1 X73.323 Y86.524 E12.46593
G1 X74.113 Y85.701 E12.52284
G1 X74.34 Y85.488 E12.53837
G0 F10800 X74.614 Y85.78
G1 F2100 X75.337 Y85.16 E12.58589
G1 X75.727 Y84.855 E12.61059
G1 X76.433 Y84.348 E12.65396
G1 X76.652 Y84.204 E12.66703
G1 X77.307 Y83.807 E12.70524
G1 X77.495 Y83.702 E12.71599
G1 X78.096 Y83.391 E12.74975
G1 X78.297 Y83.295 E12.76086
G1 X79.322 Y82.87 E12.81622
G1 X79.948 Y82.648 E12.84936
G1 X81.026 Y82.329 E12.90544
G1 X81.679 Y82.191 E12.93874
G1 X82.19 Y82.1 E12.96464
G1 X83.048 Y81.983 E13.00784
G1 X83.259 Y81.963 E13.01841
G1 X84.15 Y81.917 E13.06292
G1 X84.539 Y81.913 E13.08233
G1 X85.371 Y81.937 E13.12386
G1 X85.605 Y81.953 E13.13556
G1 X86.093 Y81.997 E13.16001
G1 X86.293 Y82.02 E13.17005
G1 X86.729 Y82.08 E13.19201
G1 X86.818 Y82.094 E13.1965
G1 X87.609 Y82.249 E13.23672
G1 X89.417 Y82.676 E13.3294
G1 X92.002 Y83.247 E13.46147
G1 X94.465 Y83.719 E13.58659
G1 X96.957 Y84.121 E13.71252
G1 X99.427 Y84.449 E13.83683
G1 X101.983 Y84.716 E13.96505
G1 X104.492 Y84.906 E14.09058
G1 X107.025 Y85.027 E14.21709
G1 X109.528 Y85.075 E14.34199
G1 X112.075 Y85.051 E14.46907
G1 X114.618 Y84.956 E14.59603
G1 X117.136 Y84.79 E14.72192
G1 X119.624 Y84.556 E14.8466
G1 X122.165 Y84.244 E14.97432
G1 X124.646 Y83.867 E15.09952
G1 X127.134 Y83.418 E15.22565
G1 X129.588 Y82.903 E15.35075
G1 X130.975 Y82.57 E15.42191
G1 X131.143 Y82.537 E15.43046
G1 X131.704 Y82.403 E15.45923
G1 X132.037 Y82.329 E15.47625
G1 X132.819 Y82.168 E15.51608
G1 X134.012 Y81.992 E15.57625
G1 X134.336 Y81.963 E15.59248
G1 X135.281 Y81.921 E15.63967
G1 X135.624 Y81.921 E15.65678
G1 X136.095 Y81.931 E15.68028
G1 X136.275 Y81.939 E15.68927
G1 X136.655 Y81.963 E15.70827
G1 X136.928 Y81.985 E15.72193
G1 X137.767 Y82.087 E15.7641
G1 X137.959 Y82.118 E15.7738
G1 X138.645 Y82.252 E15.80867
G1 X138.858 Y82.301 E15.81958
G1 X139.394 Y82.439 E15.84719
G1 X139.904 Y82.595 E15.8738
G1 X140.362 Y82.748 E15.89789
G1 X141.284 Y83.105 E15.94722
G1 X141.472 Y83.188 E15.95747
G1 X141.993 Y83.435 E15.98624
G1 X142.239 Y83.56 E16
G1 X142.922 Y83.94 E16.039
G1 X143.132 Y84.067 E16.05124
G1 X143.97 Y84.629 E16.10158
G1 X144.375 Y84.93 E16.12675
G1 X145.293 Y85.696 E16.1864
G1 X145.602 Y85.985 E16.20751
G1 X146.212 Y86.605 E16.2509
G1 X146.417 Y86.831 E16.26613
G1 X147.075 Y87.632 E16.31784
G1 X147.332 Y87.978 E16.33935
G1 X147.909 Y88.84 E16.3911
G1 X148.073 Y89.113 E16.40699
G1 X148.277 Y89.468 E16.42741
G1 X148.327 Y89.559 E16.43259
G1 X148.717 Y90.343 E16.47628
G1 X148.9 Y90.753 E16.49868
G1 X149.241 Y91.617 E16.54502
G1 X149.301 Y91.791 E16.5542
G1 X149.424 Y92.172 E16.57418
G1 X149.531 Y92.525 E16.59258
G1 X149.746 Y93.351 E16.63516
G1 X149.779 Y93.503 E16.64292
G1 X149.935 Y94.414 E16.68903
G1 X149.999 Y94.917 E16.71433
G1 X150.082 Y96.045 E16.77076
G1 X150.088 Y96.348 E16.78588
G1 X150.082 Y96.975 E16.81716
G1 X150.075 Y97.153 E16.82605
G1 X150.018 Y97.911 E16.86397
G1 X149.802 Y99.848 E16.96121
G1 X149.646 Y101.273 E17.03273
G1 X149.435 Y103.788 E17.15864
G1 X149.295 Y106.326 E17.28545
G1 X149.226 Y108.843 E17.41108
G1 X149.23 Y111.391 E17.5382
G1 X149.303 Y113.893 E17.66307
G1 X149.45 Y116.413 E17.78901
G1 X149.669 Y118.951 E17.9161
G1 X149.797 Y120.049 E17.97125
G1 X149.815 Y120.297 E17.98366
G1 X150.02 Y122.124 E18.07538
G1 X150.084 Y123.113 E18.12482
G1 X150.088 Y123.334 E18.13585
G1 X150.081 Y123.965 E18.16733
G1 X150.072 Y124.182 E18.17817
G1 X149.986 Y125.159 E18.2271
G1 X149.912 Y125.708 E18.25474
G1 X149.775 Y126.5 E18.29484
G1 X149.729 Y126.716 E18.30586
G1 X149.547 Y127.44 E18.3431
G1 X149.528 Y127.506 E18.34653
G1 X149.337 Y128.103 E18.3778
G1 X149.2 Y128.491 E18.39833
G1 X148.861 Y129.335 E18.4437
G1 X148.707 Y129.675 E18.46233
G1 X148.302 Y130.476 E18.50711
G1 X148.203 Y130.653 E18.51722
G1 X148.008 Y130.987 E18.53652
G1 X147.845 Y131.255 E18.55217
G1 X147.303 Y132.062 E18.60067
G1 X147.125 Y132.302 E18.61558
G1 X146.635 Y132.913 E18.65465
G1 X146.389 Y133.198 E18.67343
G1 X145.638 Y133.983 E18.72763
G1 X145.409 Y134.199 E18.74334
G1 X144.661 Y134.841 E18.79252
G1 X144.268 Y135.148 E18.8174
G1 X143.567 Y135.652 E18.86047
G1 X143.348 Y135.796 E18.87355
G1 X142.693 Y136.193 E18.91176
G1 X142.505 Y136.298 E18.9225
G1 X141.904 Y136.609 E18.95626
G1 X141.703 Y136.705 E18.96738
G1 X140.678 Y137.13 E19.02273
G1 X140.052 Y137.352 E19.05587
G1 X138.974 Y137.671 E19.11196
G1 X138.321 Y137.809 E19.14526
G1 X137.81 Y137.9 E19.17115
G1 X136.952 Y138.017 E19.21435
G1 X136.741 Y138.037 E19.22493
G1 X135.85 Y138.083 E19.26944
G1 X135.461 Y138.087 E19.28885
G1 X134.629 Y138.063 E19.33037
G1 X134.395 Y138.047 E19.34207
G1 X133.907 Y138.003 E19.36652
G1 X133.707 Y137.98 E19.37656
G1 X133.271 Y137.92 E19.39852
G1 X133.182 Y137.906 E19.40302
G1 X132.391 Y137.751 E19.44323
G1 X130.583 Y137.324 E19.53591
G1 X127.998 Y136.753 E19.66799
G1 X125.535 Y136.281 E19.7931
G1 X123.043 Y135.879 E19.91904
G1 X120.573 Y135.551 E20.04335
G1 X118.017 Y135.284 E20.17156
G1 X115.508 Y135.094 E20.29709
G1 X112.975 Y134.973 E20.42361
G1 X110.472 Y134.925 E20.54851
G1 X107.925 Y134.949 E20.67558
G1 X105.382 Y135.044 E20.80254
G1 X102.864 Y135.21 E20.92844
G1 X100.376 Y135.444 E21.05311
G1 X97.835 Y135.756 E21.18084
G1 X95.354 Y136.133 E21.30603
G1 X92.866 Y136.582 E21.43217
G1 X90.412 Y137.097 E21.55726
G1 X89.025 Y137.43 E21.62843
G1 X88.861 Y137.462 E21.63676
G1 X88.291 Y137.598 E21.666
G1 X87.972 Y137.669 E21.6823
G1 X87.188 Y137.831 E21.72224
G1 X85.988 Y138.008 E21.78276
G1 X85.664 Y138.037 E21.79899
G1 X84.719 Y138.079 E21.84618
G1 X84.376 Y138.079 E21.86329
G1 X83.905 Y138.069 E21.8868
G1 X83.725 Y138.061 E21.89579
G1 X83.345 Y138.037 E21.91478
G1 X83.072 Y138.015 E21.92845
G1 X82.233 Y137.913 E21.97061
G1 X82.041 Y137.882 E21.98032
G1 X81.355 Y137.748 E22.01519
G1 X81.142 Y137.699 E22.02609
G1 X80.606 Y137.561 E22.05371
G1 X80.096 Y137.405 E22.08031
G1 X79.638 Y137.252 E22.1044
G1 X78.725 Y136.899 E22.15324
G1 X78.532 Y136.814 E22.16376
G1 X77.985 Y136.554 E22.19398
G1 X77.744 Y136.431 E22.20748
G1 X77.13 Y136.092 E22.24247
G1 X76.939 Y135.978 E22.25357
G1 X76.064 Y135.394 E22.30605
G1 X75.64 Y135.08 E22.33237
G1 X74.694 Y134.291 E22.39383
G1 X74.385 Y134.001 E22.41497
G1 X73.788 Y133.394 E22.45745
G1 X73.583 Y133.168 E22.47267
G1 X72.928 Y132.371 E22.52414
G1 X72.67 Y132.024 E22.54571
G1 X72.084 Y131.148 E22.59829
G1 X71.915 Y130.866 E22.61469
G1 X71.714 Y130.517 E22.63479
G1 X71.669 Y130.435 E22.63945
G1 X71.281 Y129.653 E22.683
G1 X71.099 Y129.245 E22.70529
G1 X70.77 Y128.414 E22.74988
G1 X70.708 Y128.236 E22.75929
G1 X70.568 Y127.805 E22.78189
G1 X70.462 Y127.453 E22.80024
G1 X70.239 Y126.581 E22.84514
G1 X70.207 Y126.429 E22.85289
G1 X70.065 Y125.586 E22.89554
G1 X70.001 Y125.084 E22.92079
G1 X69.918 Y123.942 E22.97791
G1 X69.912 Y123.622 E22.99388
G1 X69.922 Y122.922 E23.02881
G1 X69.93 Y122.753 E23.03725
G1 X69.983 Y122.079 E23.07098
G1 X70.198 Y120.152 E23.16771
G1 X70.354 Y118.727 E23.23923
G1 X70.565 Y116.212 E23.36514
G1 X70.705 Y113.674 E23.49196
G1 X70.774 Y111.157 E23.61758
G1 X70.77 Y108.609 E23.7447
G1 X70.697 Y106.107 E23.86958
G1 X70.55 Y103.587 E23.99551
G1 X70.332 Y101.052 E24.12245
G1 X70.203 Y99.952 E24.17771
G1 X70.185 Y99.701 E24.19026
G1 X69.98 Y97.875 E24.28194
G1 X69.916 Y96.887 E24.33133
G1 X69.912 Y96.667 E24.34231
