;FLAVOR:Marlin
;TIME:1183
;Filament used: 0.61463m
;Layer height: 0.2
;MINX:87.512
;MINY:81.51
;MINZ:0.2
;MAXX:143.926
;MAXY:147.519
;MAXZ:8
;Generated with Cura_SteamEngine 4.11.0
M140 S45
M105
M190 S45
M104 S205
M105
M109 S205
M82 ;absolute extrusion mode
; Ender 3 Custom Start G-code
G92 E0 ; Reset Extruder
G28 ; Home all axes
G1 Z2.0 F3000 ; Move Z Axis up little to prevent scratching of Heat Bed
G1 X0.1 Y20 Z0.3 F5000.0 ; Move to start position
G1 X0.1 Y200.0 Z0.3 F1500.0 E15 ; Draw the first line
G1 X0.4 Y200.0 Z0.3 F5000.0 ; Move to side a little
G1 X0.4 Y20 Z0.3 F1500.0 E30 ; Draw the second line
G92 E0 ; Reset Extruder
G1 Z2.0 F3000 ; Move Z Axis up little to prevent scratching of Heat Bed
G1 X5 Y20 Z0.3 F5000.0 ; Move over to prevent blob squish
G92 E0
G92 E0
G1 F1200 E-4
;LAYER_COUNT:40
;LAYER:0
M107
G0 F13200 X91.323 Y86.524 Z0.2
;TYPE:SKIRT
G1 F1200 E0
G1 F2700 X92.113 Y85.701 E0.03794
G1 X92.34 Y85.488 E0.0483
G1 X93.091 Y84.845 E0.08118
G1 X93.481 Y84.54 E0.09765
G1 X94.214 Y84.014 E0.12765
G1 X94.433 Y83.87 E0.13637
G1 X95.112 Y83.457 E0.1628
G1 X95.3 Y83.352 E0.16997
G1 X96.115 Y82.94 E0.20034
G1 X96.344 Y82.836 E0.20871
G1 X96.882 Y82.609 E0.22813
G1 X97.191 Y82.488 E0.23916
G1 X97.708 Y82.301 E0.25745
G1 X97.914 Y82.232 E0.26468
G1 X98.528 Y82.046 E0.28601
G1 X98.657 Y82.011 E0.29046
G1 X99.608 Y81.797 E0.32288
G1 X100.119 Y81.706 E0.34014
G1 X101.01 Y81.585 E0.37005
G1 X101.221 Y81.565 E0.3771
G1 X101.86 Y81.523 E0.3984
G1 X102.053 Y81.516 E0.40482
G1 X102.6 Y81.51 E0.42302
G1 X102.823 Y81.513 E0.43044
G1 X103.706 Y81.56 E0.45985
G1 X104.067 Y81.594 E0.47191
G1 X104.822 Y81.692 E0.49723
G1 X105.059 Y81.731 E0.50522
G1 X105.746 Y81.867 E0.52851
G1 X106.019 Y81.93 E0.53783
G1 X106.744 Y82.123 E0.56278
G1 X106.925 Y82.178 E0.56907
G1 X107.856 Y82.508 E0.60193
G1 X108.214 Y82.653 E0.61477
G1 X108.677 Y82.852 E0.63153
G1 X109.241 Y83.113 E0.6522
G1 X111.657 Y84.273 E0.74134
G1 X113.946 Y85.293 E0.82469
G1 X116.299 Y86.265 E0.90937
G1 X118.619 Y87.143 E0.99187
G1 X121.013 Y87.975 E1.07617
G1 X123.413 Y88.734 E1.15989
G1 X125.811 Y89.418 E1.24283
G1 X128.249 Y90.039 E1.32651
G1 X130.85 Y90.608 E1.41506
G1 X132.322 Y90.934 E1.46521
G1 X133.576 Y91.291 E1.50857
G1 X133.999 Y91.439 E1.52348
G1 X134.473 Y91.618 E1.54033
G1 X134.714 Y91.715 E1.54897
G1 X135.846 Y92.247 E1.59057
G1 X136.35 Y92.52 E1.60964
G1 X137.155 Y93.001 E1.64083
G1 X137.567 Y93.286 E1.65749
G1 X137.716 Y93.394 E1.66361
G1 X138.072 Y93.663 E1.67845
G1 X138.304 Y93.846 E1.68828
G1 X138.617 Y94.103 E1.70175
G1 X138.864 Y94.313 E1.71253
G1 X139.517 Y94.915 E1.74207
G1 X140.004 Y95.431 E1.76567
G1 X140.251 Y95.71 E1.77806
G1 X140.562 Y96.076 E1.79404
G1 X141.077 Y96.756 E1.82241
G1 X141.391 Y97.206 E1.84066
G1 X142.108 Y98.386 E1.88658
G1 X142.16 Y98.485 E1.8903
G1 X142.349 Y98.861 E1.9043
G1 X142.571 Y99.326 E1.92144
G1 X142.911 Y100.116 E1.95004
G1 X142.951 Y100.22 E1.95375
G1 X143.208 Y100.969 E1.98009
G1 X143.35 Y101.436 E1.99632
G1 X143.542 Y102.154 E2.02104
G1 X143.564 Y102.249 E2.02428
G1 X143.684 Y102.84 E2.04434
G1 X143.725 Y103.075 E2.05228
G1 X143.784 Y103.445 E2.06474
G1 X143.852 Y104.019 E2.08396
G1 X143.873 Y104.244 E2.09148
G1 X143.918 Y105.007 E2.1169
G1 X143.926 Y105.347 E2.12821
G1 X143.915 Y106.159 E2.15522
G1 X143.901 Y106.437 E2.16448
G1 X143.847 Y107.104 E2.18674
G1 X143.666 Y108.722 E2.24089
G1 X143.543 Y109.755 E2.27549
G1 X143.314 Y112.302 E2.36054
G1 X143.159 Y114.8 E2.44379
G1 X143.074 Y117.32 E2.52765
G1 X143.061 Y119.844 E2.6116
G1 X143.118 Y122.333 E2.69441
G1 X143.249 Y124.887 E2.77946
G1 X143.447 Y127.366 E2.86218
G1 X143.761 Y130.228 E2.95794
G1 X143.797 Y130.508 E2.96733
G1 X143.856 Y131.049 E2.98543
G1 X143.898 Y131.573 E3.00291
G1 X143.903 Y131.661 E3.00585
G1 X143.921 Y132.189 E3.02342
G1 X143.925 Y132.647 E3.03865
G1 X143.895 Y133.549 E3.06867
G1 X143.882 Y133.726 E3.07457
G1 X143.829 Y134.272 E3.09282
G1 X143.801 Y134.498 E3.10039
G1 X143.657 Y135.369 E3.12975
G1 X143.579 Y135.747 E3.14259
G1 X143.388 Y136.528 E3.16933
G1 X143.321 Y136.764 E3.17749
G1 X143.077 Y137.519 E3.20388
G1 X142.981 Y137.783 E3.21323
G1 X142.713 Y138.451 E3.23717
G1 X142.611 Y138.683 E3.24559
G1 X142.235 Y139.454 E3.27412
G1 X142.109 Y139.689 E3.28299
G1 X141.782 Y140.258 E3.30482
G1 X141.633 Y140.5 E3.31427
G1 X141.105 Y141.281 E3.34563
G1 X140.845 Y141.632 E3.36016
G1 X140.168 Y142.459 E3.3957
G1 X139.943 Y142.708 E3.40687
G1 X139.381 Y143.285 E3.43366
G1 X139.223 Y143.436 E3.44093
G1 X138.719 Y143.889 E3.46346
G1 X138.475 Y144.095 E3.47409
G1 X138.002 Y144.473 E3.49422
G1 X137.815 Y144.614 E3.50201
G1 X137.172 Y145.063 E3.5281
G1 X136.996 Y145.177 E3.53507
G1 X136.366 Y145.556 E3.55953
G1 X136.057 Y145.728 E3.57129
G1 X135.091 Y146.206 E3.60714
G1 X134.755 Y146.352 E3.61932
G1 X133.628 Y146.77 E3.6593
G1 X133.257 Y146.885 E3.67222
G1 X132.439 Y147.104 E3.70038
G1 X132.14 Y147.172 E3.71058
G1 X131.532 Y147.293 E3.7312
G1 X131.147 Y147.358 E3.74419
G1 X130.217 Y147.474 E3.77536
G1 X129.474 Y147.51 E3.8001
G1 X128.847 Y147.519 E3.82096
G1 X127.909 Y147.492 E3.85217
G1 X127.371 Y147.441 E3.87014
G1 X127.081 Y147.406 E3.87986
G1 X126.369 Y147.296 E3.90382
G1 X125.863 Y147.201 E3.92094
G1 X124.538 Y146.866 E3.9664
G1 X124.207 Y146.76 E3.97796
G1 X123.54 Y146.522 E4.00151
G1 X123.428 Y146.478 E4.00552
G1 X122.867 Y146.24 E4.02578
G1 X122.603 Y146.119 E4.03544
G1 X122.3 Y145.974 E4.04662
G1 X122.006 Y145.828 E4.05753
G1 X119.683 Y144.718 E4.14316
G1 X117.362 Y143.687 E4.22763
G1 X115.039 Y142.731 E4.31118
G1 X112.667 Y141.839 E4.39547
G1 X110.318 Y141.026 E4.47815
G1 X107.908 Y140.268 E4.56218
G1 X105.477 Y139.579 E4.64622
G1 X103.075 Y138.971 E4.72863
G1 X100.609 Y138.434 E4.81257
G1 X99.176 Y138.118 E4.86137
G1 X98.582 Y137.97 E4.88173
G1 X97.88 Y137.751 E4.90619
G1 X97.328 Y137.559 E4.92563
G1 X96.499 Y137.233 E4.95526
G1 X96.268 Y137.131 E4.96366
G1 X95.58 Y136.798 E4.98908
G1 X95.434 Y136.721 E4.99457
G1 X94.974 Y136.464 E5.0121
G1 X94.791 Y136.356 E5.01916
G1 X94.269 Y136.028 E5.03967
G1 X94.079 Y135.901 E5.04727
G1 X93.436 Y135.437 E5.07364
G1 X93.161 Y135.223 E5.08523
G1 X92.68 Y134.826 E5.10598
G1 X92.593 Y134.75 E5.10982
G1 X92.023 Y134.215 E5.13582
G1 X91.756 Y133.946 E5.14843
G1 X91.171 Y133.309 E5.17719
G1 X91.021 Y133.132 E5.18491
G1 X90.582 Y132.578 E5.20842
G1 X90.38 Y132.306 E5.21969
G1 X89.804 Y131.449 E5.25403
G1 X89.644 Y131.185 E5.2643
G1 X89.449 Y130.85 E5.27719
G1 X89.335 Y130.646 E5.28496
G1 X88.879 Y129.734 E5.31888
G1 X88.724 Y129.384 E5.33161
G1 X88.395 Y128.549 E5.36146
G1 X88.272 Y128.196 E5.37389
G1 X87.987 Y127.245 E5.40691
G1 X87.915 Y126.957 E5.41678
G1 X87.737 Y126.097 E5.44599
G1 X87.668 Y125.633 E5.4616
G1 X87.604 Y125.129 E5.47849
G1 X87.518 Y123.952 E5.51775
G1 X87.512 Y123.636 E5.52826
G1 X87.521 Y122.944 E5.55128
G1 X87.529 Y122.762 E5.55734
G1 X87.585 Y122.034 E5.58162
G1 X87.771 Y120.365 E5.63748
G1 X87.819 Y119.991 E5.65002
G1 X88.063 Y117.526 E5.7324
G1 X88.241 Y114.996 E5.81676
G1 X88.346 Y112.498 E5.89992
G1 X88.381 Y109.966 E5.98414
G1 X88.344 Y107.45 E6.06783
G1 X88.236 Y104.931 E6.15169
G1 X88.06 Y102.451 E6.23438
G1 X87.799 Y99.847 E6.32143
G1 X87.582 Y97.919 E6.38596
G1 X87.518 Y96.977 E6.41736
G1 X87.513 Y96.783 E6.42381
G1 X87.52 Y96.009 E6.44956
G1 X87.536 Y95.651 E6.46148
G1 X87.604 Y94.828 E6.48894
G1 X87.633 Y94.587 E6.49702
G1 X87.711 Y94.048 E6.51513
G1 X87.745 Y93.849 E6.52185
G1 X87.884 Y93.168 E6.54496
G1 X87.933 Y92.961 E6.55204
G1 X88.093 Y92.36 E6.57272
G1 X88.137 Y92.212 E6.57786
G1 X88.33 Y91.625 E6.59841
G1 X88.403 Y91.422 E6.60559
G1 X88.541 Y91.059 E6.6185
G1 X88.593 Y90.929 E6.62316
G1 X88.758 Y90.537 E6.63731
G1 X88.889 Y90.243 E6.64801
G1 X89.335 Y89.354 E6.68109
G1 X89.449 Y89.15 E6.68886
G1 X89.653 Y88.799 E6.70237
G1 X89.813 Y88.536 E6.71261
G1 X90.376 Y87.7 E6.74613
G1 X90.554 Y87.46 E6.75607
G1 X91.072 Y86.814 E6.78361
G1 X91.323 Y86.524 E6.79636
G0 F13200 X91.625 Y86.786
G1 F2700 X92.387 Y85.993 E6.83294
G1 X92.614 Y85.78 E6.8433
G1 X93.337 Y85.16 E6.87497
G1 X93.727 Y84.855 E6.89144
G1 X94.433 Y84.348 E6.92035
G1 X94.652 Y84.204 E6.92907
G1 X95.307 Y83.807 E6.95454
G1 X95.495 Y83.702 E6.96171
G1 X96.281 Y83.305 E6.99099
G1 X96.51 Y83.201 E6.99936
G1 X97.028 Y82.982 E7.01806
G1 X97.337 Y82.861 E7.0291
G1 X97.835 Y82.68 E7.04672
G1 X98.041 Y82.611 E7.05395
G1 X98.632 Y82.432 E7.07449
G1 X98.761 Y82.397 E7.07893
G1 X99.679 Y82.191 E7.11023
G1 X100.19 Y82.1 E7.12749
G1 X101.048 Y81.983 E7.15629
G1 X101.259 Y81.963 E7.16334
G1 X101.875 Y81.923 E7.18387
G1 X102.068 Y81.916 E7.1903
G1 X102.595 Y81.91 E7.20782
G1 X102.818 Y81.913 E7.21524
G1 X103.669 Y81.959 E7.24359
G1 X104.03 Y81.993 E7.25565
G1 X104.757 Y82.087 E7.28003
G1 X104.994 Y82.126 E7.28802
G1 X105.657 Y82.256 E7.31049
G1 X105.93 Y82.319 E7.31981
G1 X106.628 Y82.506 E7.34384
G1 X106.809 Y82.561 E7.35013
G1 X107.706 Y82.878 E7.38178
G1 X108.064 Y83.023 E7.39462
G1 X108.51 Y83.216 E7.41079
G1 X109.067 Y83.474 E7.4312
G1 X111.458 Y84.622 E7.51942
G1 X113.779 Y85.656 E7.60393
G1 X116.171 Y86.644 E7.69001
G1 X118.482 Y87.519 E7.7722
G1 X120.877 Y88.351 E7.85653
G1 X123.288 Y89.113 E7.94063
G1 X125.732 Y89.81 E8.02515
G1 X128.161 Y90.429 E8.10853
G1 X130.763 Y90.999 E8.19712
G1 X132.235 Y91.325 E8.24727
G1 X133.444 Y91.669 E8.28907
G1 X133.867 Y91.817 E8.30398
G1 X134.324 Y91.989 E8.32022
G1 X134.565 Y92.086 E8.32886
G1 X135.656 Y92.599 E8.36896
G1 X136.16 Y92.872 E8.38802
G1 X136.949 Y93.345 E8.41862
G1 X137.332 Y93.609 E8.43409
G1 X137.481 Y93.717 E8.44021
G1 X137.825 Y93.977 E8.45455
G1 X138.057 Y94.16 E8.46438
G1 X138.358 Y94.407 E8.47733
G1 X138.605 Y94.617 E8.48811
G1 X139.234 Y95.198 E8.51659
G1 X139.705 Y95.696 E8.53939
G1 X139.952 Y95.975 E8.55179
G1 X140.253 Y96.33 E8.56727
G1 X140.749 Y96.985 E8.59459
G1 X141.063 Y97.435 E8.61284
G1 X141.754 Y98.572 E8.6571
G1 X141.806 Y98.671 E8.66082
G1 X141.988 Y99.033 E8.67429
G1 X142.21 Y99.498 E8.69143
G1 X142.537 Y100.26 E8.71901
G1 X142.577 Y100.364 E8.72272
G1 X142.826 Y101.085 E8.74809
G1 X142.968 Y101.552 E8.76432
G1 X143.153 Y102.245 E8.78818
G1 X143.175 Y102.34 E8.79142
G1 X143.29 Y102.909 E8.81073
G1 X143.331 Y103.144 E8.81866
G1 X143.388 Y103.503 E8.83075
G1 X143.454 Y104.056 E8.84928
G1 X143.475 Y104.281 E8.85679
G1 X143.518 Y105.017 E8.88131
G1 X143.526 Y105.357 E8.89262
G1 X143.516 Y106.139 E8.91864
G1 X143.502 Y106.417 E8.92789
G1 X143.45 Y107.06 E8.94935
G1 X143.269 Y108.675 E9.0034
G1 X143.142 Y109.743 E9.03917
G1 X142.917 Y112.242 E9.12263
G1 X142.759 Y114.796 E9.20774
G1 X142.674 Y117.305 E9.29123
G1 X142.661 Y119.851 E9.37591
G1 X142.718 Y122.362 E9.45945
G1 X142.849 Y124.905 E9.54415
G1 X143.046 Y127.375 E9.62656
G1 X143.369 Y130.317 E9.725
G1 X143.426 Y130.786 E9.74071
G1 X143.458 Y131.091 E9.75091
G1 X143.499 Y131.596 E9.76776
G1 X143.504 Y131.684 E9.77069
G1 X143.521 Y132.192 E9.7876
G1 X143.525 Y132.65 E9.80283
G1 X143.497 Y133.519 E9.83175
G1 X143.484 Y133.696 E9.83766
G1 X143.432 Y134.223 E9.85527
G1 X143.404 Y134.449 E9.86284
G1 X143.265 Y135.288 E9.89113
G1 X143.187 Y135.666 E9.90397
G1 X143.003 Y136.419 E9.92975
G1 X142.936 Y136.655 E9.93791
G1 X142.701 Y137.382 E9.96332
G1 X142.605 Y137.646 E9.97266
G1 X142.347 Y138.29 E9.99574
G1 X142.245 Y138.522 E10.00417
G1 X141.883 Y139.265 E10.03166
G1 X141.757 Y139.5 E10.04052
G1 X141.441 Y140.049 E10.06159
G1 X141.292 Y140.291 E10.07104
G1 X140.784 Y141.042 E10.1012
G1 X140.524 Y141.393 E10.11573
G1 X139.871 Y142.191 E10.15002
G1 X139.646 Y142.44 E10.16119
G1 X139.105 Y142.996 E10.18699
G1 X138.947 Y143.147 E10.19426
G1 X138.461 Y143.583 E10.21597
G1 X138.217 Y143.789 E10.22659
G1 X137.761 Y144.154 E10.24602
G1 X137.574 Y144.295 E10.25381
G1 X136.955 Y144.728 E10.27894
G1 X136.779 Y144.842 E10.28591
G1 X136.171 Y145.207 E10.3095
G1 X135.862 Y145.379 E10.32126
G1 X134.931 Y145.839 E10.3558
G1 X134.595 Y145.985 E10.36798
G1 X133.509 Y146.388 E10.40651
G1 X133.138 Y146.503 E10.41943
G1 X132.351 Y146.714 E10.44653
G1 X132.052 Y146.782 E10.45673
G1 X131.466 Y146.898 E10.4766
G1 X131.081 Y146.963 E10.48958
G1 X130.167 Y147.077 E10.52022
G1 X129.468 Y147.11 E10.54349
G1 X128.841 Y147.119 E10.56435
G1 X127.921 Y147.092 E10.59496
G1 X127.419 Y147.044 E10.61173
G1 X127.129 Y147.009 E10.62145
G1 X126.443 Y146.903 E10.64454
G1 X125.937 Y146.808 E10.66166
G1 X124.66 Y146.485 E10.70547
G1 X124.329 Y146.379 E10.71703
G1 X123.686 Y146.15 E10.73973
G1 X123.574 Y146.106 E10.74374
G1 X123.033 Y145.876 E10.76329
G1 X122.769 Y145.755 E10.77295
G1 X122.477 Y145.616 E10.7837
G1 X122.149 Y145.453 E10.79589
G1 X119.855 Y144.357 E10.88045
G1 X117.511 Y143.316 E10.96575
G1 X115.166 Y142.351 E11.05009
G1 X112.824 Y141.469 E11.13333
G1 X110.432 Y140.642 E11.21751
G1 X108.031 Y139.887 E11.30122
G1 X105.612 Y139.201 E11.38485
G1 X103.14 Y138.575 E11.46966
G1 X100.695 Y138.043 E11.55289
G1 X99.262 Y137.727 E11.60169
G1 X98.688 Y137.584 E11.62137
G1 X98.012 Y137.374 E11.64491
G1 X97.46 Y137.182 E11.66435
G1 X96.66 Y136.867 E11.69295
G1 X96.429 Y136.765 E11.70134
G1 X95.766 Y136.444 E11.72584
G1 X95.62 Y136.367 E11.73133
G1 X95.178 Y136.12 E11.74818
G1 X94.995 Y136.012 E11.75524
G1 X94.491 Y135.696 E11.77503
G1 X94.301 Y135.569 E11.78263
G1 X93.682 Y135.121 E11.80804
G1 X93.407 Y134.907 E11.81963
G1 X92.943 Y134.525 E11.83962
G1 X92.856 Y134.449 E11.84347
G1 X92.307 Y133.933 E11.86852
G1 X92.04 Y133.664 E11.88113
G1 X91.476 Y133.05 E11.90886
G1 X91.326 Y132.873 E11.91658
G1 X90.903 Y132.34 E11.93921
G1 X90.701 Y132.068 E11.95048
G1 X90.146 Y131.242 E11.98358
G1 X89.986 Y130.978 E11.99384
G1 X89.798 Y130.655 E12.00627
G1 X89.684 Y130.451 E12.01405
G1 X89.245 Y129.572 E12.04673
G1 X89.09 Y129.222 E12.05946
G1 X88.772 Y128.418 E12.08821
G1 X88.649 Y128.065 E12.10065
G1 X88.375 Y127.148 E12.13248
G1 X88.303 Y126.86 E12.14235
G1 X88.131 Y126.032 E12.17048
G1 X88.064 Y125.582 E12.18561
G1 X88 Y125.078 E12.20251
G1 X87.918 Y123.944 E12.24033
G1 X87.912 Y123.628 E12.25084
G1 X87.92 Y122.962 E12.27299
G1 X87.928 Y122.78 E12.27905
G1 X87.982 Y122.078 E12.30247
G1 X88.146 Y120.597 E12.35203
G1 X88.216 Y120.045 E12.37053
G1 X88.462 Y117.561 E12.45356
G1 X88.639 Y115.041 E12.53758
G1 X88.746 Y112.485 E12.62266
G1 X88.781 Y109.966 E12.70645
G1 X88.744 Y107.427 E12.79091
G1 X88.637 Y104.921 E12.87434
G1 X88.458 Y102.416 E12.95787
G1 X88.196 Y99.798 E13.04538
G1 X87.98 Y97.874 E13.10977
G1 X87.918 Y96.967 E13.14001
G1 X87.913 Y96.773 E13.14646
G1 X87.92 Y96.027 E13.17128
G1 X87.936 Y95.669 E13.18319
G1 X88.001 Y94.876 E13.20966
G1 X88.03 Y94.635 E13.21773
G1 X88.105 Y94.116 E13.23517
G1 X88.139 Y93.917 E13.24189
G1 X88.273 Y93.26 E13.26419
G1 X88.322 Y93.053 E13.27127
G1 X88.477 Y92.474 E13.2912
G1 X88.521 Y92.326 E13.29634
G1 X88.706 Y91.76 E13.31614
G1 X88.779 Y91.557 E13.32332
G1 X88.912 Y91.207 E13.33577
G1 X88.964 Y91.077 E13.34043
G1 X89.124 Y90.7 E13.35405
G1 X89.255 Y90.406 E13.36475
G1 X89.684 Y89.549 E13.39663
G1 X89.798 Y89.345 E13.4044
G1 X89.995 Y89.007 E13.41741
G1 X90.155 Y88.744 E13.42765
G1 X90.697 Y87.938 E13.45996
G1 X90.875 Y87.698 E13.4699
G1 X91.374 Y87.076 E13.49642
G1 X91.625 Y86.786 E13.50918
G0 F13200 X91.928 Y87.048
G1 F2700 X92.661 Y86.285 E13.54437
G1 X92.888 Y86.072 E13.55472
G1 X93.583 Y85.475 E13.58519
G1 X93.973 Y85.17 E13.60166
G1 X94.653 Y84.682 E13.6295
G1 X94.872 Y84.538 E13.63822
G1 X95.502 Y84.156 E13.66272
G1 X95.69 Y84.051 E13.66988
G1 X96.446 Y83.669 E13.69805
G1 X96.675 Y83.565 E13.70642
G1 X97.174 Y83.354 E13.72444
G1 X97.483 Y83.233 E13.73548
G1 X97.962 Y83.059 E13.75243
G1 X98.168 Y82.99 E13.75965
G1 X98.737 Y82.818 E13.77942
