;FLAVOR:Marlin
;TIME:1554
;Filament used: 0.953259m
;Layer height: 0.2
;MINX:69.515
;MINY:81.318
;MINZ:0.2
;MAXX:150.489
;MAXY:138.711
;MAXZ:8
;Generated with Cura_SteamEngine 4.11.0
M140 S45
M105
M190 S45
M104 S205
M105
M109 S205
M82 ;absolute extrusion mode
; Ender 3 Custom Start G-code
G92 E0 ; Reset Extruder
G28 ; Home all axes
G1 Z2.0 F3000 ; Move Z Axis up little to prevent scratching of Heat Bed
G1 X0.1 Y20 Z0.3 F5000.0 ; Move to start position
G1 X0.1 Y200.0 Z0.3 F1500.0 E15 ; Draw the first line
G1 X0.4 Y200.0 Z0.3 F5000.0 ; Move to side a little
G1 X0.4 Y20 Z0.3 F1500.0 E30 ; Draw the second line
G92 E0 ; Reset Extruder
G1 Z2.0 F3000 ; Move Z Axis up little to prevent scratching of Heat Bed
G1 X5 Y20 Z0.3 F5000.0 ; Move over to prevent blob squish
G92 E0
G92 E0
G1 F1200 E-4
;LAYER_COUNT:40
;LAYER:0
M107
G0 F13200 X74.876 Y85.239 Z0.2
;TYPE:SKIRT
G1 F1200 E0
G1 F2700 X74.995 Y85.14 E0.00515
G1 X75.702 Y84.599 E0.03476
G1 X76.12 Y84.305 E0.05176
G1 X77.195 Y83.637 E0.09385
G1 X77.379 Y83.537 E0.10082
G1 X77.923 Y83.261 E0.12111
G1 X78.113 Y83.171 E0.1281
G1 X78.709 Y82.91 E0.14974
G1 X79.091 Y82.756 E0.16344
G1 X79.689 Y82.535 E0.18464
G1 X79.775 Y82.506 E0.18766
G1 X80.494 Y82.29 E0.21263
G1 X80.981 Y82.162 E0.22938
G1 X81.897 Y81.963 E0.26055
G1 X82.39 Y81.889 E0.27714
G1 X82.862 Y81.829 E0.29296
G1 X83.411 Y81.773 E0.31132
G1 X83.638 Y81.756 E0.31889
G1 X86.319 Y81.532 E0.40837
G1 X87.789 Y81.377 E0.45753
G1 X88.725 Y81.318 E0.48872
G1 X90.108 Y81.378 E0.53477
G1 X90.296 Y81.398 E0.54105
G1 X91.603 Y81.617 E0.58513
G1 X94.2 Y82.216 E0.67378
G1 X96.707 Y82.72 E0.75883
G1 X99.167 Y83.14 E0.84183
G1 X101.65 Y83.495 E0.92526
G1 X104.146 Y83.779 E1.00881
G1 X106.65 Y83.992 E1.09239
G1 X109.183 Y84.137 E1.17678
G1 X111.668 Y84.208 E1.25946
G1 X114.192 Y84.208 E1.34341
G1 X116.717 Y84.137 E1.42743
G1 X119.236 Y83.996 E1.51134
G1 X121.743 Y83.783 E1.59502
G1 X124.233 Y83.5 E1.67838
G1 X126.766 Y83.14 E1.76347
G1 X129.178 Y82.728 E1.84486
G1 X132.131 Y82.13 E1.94507
G1 X132.534 Y82.042 E1.95879
G1 X133.312 Y81.901 E1.98508
G1 X133.581 Y81.862 E1.99412
G1 X134.535 Y81.766 E2.02601
G1 X134.623 Y81.761 E2.02895
G1 X135.149 Y81.743 E2.04645
G1 X135.596 Y81.739 E2.06132
G1 X136.34 Y81.758 E2.08607
G1 X137.205 Y81.84 E2.11497
G1 X137.7 Y81.907 E2.13159
G1 X137.955 Y81.945 E2.14016
G1 X138.957 Y82.149 E2.17417
G1 X139.431 Y82.269 E2.19043
G1 X140.389 Y82.559 E2.22373
G1 X140.701 Y82.669 E2.23473
G1 X141.606 Y83.034 E2.26718
G1 X141.674 Y83.065 E2.26967
G1 X142.208 Y83.326 E2.28944
G1 X142.426 Y83.44 E2.29762
G1 X142.822 Y83.658 E2.31266
G1 X143.254 Y83.907 E2.32924
G1 X144.205 Y84.522 E2.36691
G1 X144.371 Y84.642 E2.37372
G1 X144.869 Y85.024 E2.3946
G1 X145.046 Y85.168 E2.40219
G1 X145.499 Y85.558 E2.42207
G1 X145.695 Y85.736 E2.43087
G1 X146.27 Y86.298 E2.45762
G1 X146.426 Y86.462 E2.46514
G1 X146.774 Y86.845 E2.48236
G1 X146.819 Y86.897 E2.48464
G1 X147.228 Y87.399 E2.50618
G1 X147.551 Y87.82 E2.52383
G1 X148.09 Y88.588 E2.55504
G1 X148.404 Y89.11 E2.5753
G1 X148.632 Y89.514 E2.59073
G1 X149.012 Y90.251 E2.6183
G1 X149.057 Y90.347 E2.62183
G1 X149.221 Y90.714 E2.6352
G1 X149.405 Y91.147 E2.65085
G1 X149.832 Y92.337 E2.6929
G1 X149.919 Y92.632 E2.70313
G1 X150.093 Y93.301 E2.72612
G1 X150.134 Y93.481 E2.73226
G1 X150.327 Y94.581 E2.76941
G1 X150.403 Y95.199 E2.79011
G1 X150.484 Y96.361 E2.82886
G1 X150.489 Y96.665 E2.83897
G1 X150.464 Y97.603 E2.87018
G1 X150.421 Y98.075 E2.88594
G1 X150.188 Y100.145 E2.95523
G1 X149.93 Y102.777 E3.04319
G1 X149.756 Y105.289 E3.12694
G1 X149.651 Y107.821 E3.21122
G1 X149.619 Y110.304 E3.29381
G1 X149.659 Y112.835 E3.37801
G1 X149.769 Y115.376 E3.4626
G1 X149.947 Y117.841 E3.5448
G1 X150.205 Y120.397 E3.63024
G1 X150.245 Y120.72 E3.64107
G1 X150.383 Y121.91 E3.68091
G1 X150.412 Y122.195 E3.69044
G1 X150.438 Y122.485 E3.70013
G1 X150.479 Y123.207 E3.72418
G1 X150.487 Y123.546 E3.73546
G1 X150.482 Y124.229 E3.75817
G1 X150.476 Y124.385 E3.76337
G1 X150.403 Y125.298 E3.79383
G1 X150.344 Y125.78 E3.80998
G1 X150.255 Y126.373 E3.82993
G1 X150.242 Y126.446 E3.83239
G1 X150.038 Y127.363 E3.86364
G1 X149.914 Y127.826 E3.87958
G1 X149.549 Y128.944 E3.91869
G1 X149.447 Y129.208 E3.92811
G1 X149.066 Y130.079 E3.95973
G1 X148.928 Y130.361 E3.97017
G1 X148.71 Y130.784 E3.986
G1 X148.513 Y131.146 E3.99971
G1 X148.11 Y131.828 E4.02605
G1 X148.076 Y131.881 E4.02815
G1 X147.483 Y132.716 E4.06221
G1 X147.243 Y133.023 E4.07517
G1 X146.957 Y133.373 E4.0902
G1 X146.747 Y133.62 E4.10099
G1 X146.032 Y134.385 E4.13581
G1 X145.892 Y134.521 E4.14231
G1 X145.568 Y134.823 E4.15704
G1 X145.337 Y135.03 E4.16735
G1 X144.697 Y135.561 E4.19501
G1 X144.546 Y135.677 E4.20135
G1 X144.114 Y135.992 E4.21913
G1 X143.941 Y136.112 E4.22613
G1 X143.389 Y136.472 E4.24805
G1 X143.269 Y136.545 E4.25272
G1 X142.827 Y136.8 E4.2697
G1 X142.644 Y136.9 E4.27663
G1 X142.338 Y137.061 E4.28813
G1 X142.103 Y137.18 E4.29689
G1 X141.42 Y137.497 E4.32194
G1 X141.342 Y137.53 E4.32475
G1 X140.705 Y137.776 E4.34747
G1 X140.358 Y137.898 E4.3597
G1 X139.507 Y138.159 E4.38931
G1 X139.028 Y138.285 E4.40578
G1 X137.893 Y138.521 E4.44434
G1 X137.638 Y138.56 E4.45292
G1 X136.727 Y138.66 E4.4834
G1 X136.581 Y138.67 E4.48827
G1 X136.152 Y138.691 E4.50255
G1 X135.641 Y138.706 E4.51955
G1 X134.719 Y138.695 E4.55022
G1 X134.664 Y138.692 E4.55205
G1 X134.042 Y138.64 E4.57281
G1 X133.684 Y138.6 E4.5848
G1 X132.658 Y138.436 E4.61935
G1 X132.107 Y138.321 E4.63808
G1 X131.767 Y138.244 E4.64967
G1 X131.07 Y138.075 E4.67352
G1 X128.531 Y137.497 E4.76013
G1 X126.072 Y137.01 E4.84351
G1 X123.564 Y136.586 E4.92811
G1 X121.056 Y136.235 E5.01234
G1 X118.609 Y135.963 E5.09423
G1 X116.059 Y135.752 E5.17933
G1 X113.541 Y135.616 E5.2632
G1 X111.055 Y135.551 E5.34591
G1 X108.525 Y135.558 E5.43006
G1 X106.012 Y135.634 E5.51368
G1 X103.477 Y135.784 E5.59814
G1 X101.008 Y136 E5.68058
G1 X98.469 Y136.294 E5.76559
G1 X96.017 Y136.65 E5.848
G1 X93.503 Y137.086 E5.93286
G1 X91.064 Y137.582 E6.01564
G1 X88.748 Y138.127 E6.09478
G1 X87.475 Y138.406 E6.13812
G1 X86.719 Y138.544 E6.16368
G1 X86.44 Y138.585 E6.17306
G1 X85.465 Y138.684 E6.20566
G1 X85.377 Y138.689 E6.20859
G1 X84.851 Y138.707 E6.22609
G1 X84.404 Y138.711 E6.24096
G1 X83.66 Y138.692 E6.26572
G1 X82.795 Y138.61 E6.29462
G1 X82.3 Y138.543 E6.31123
G1 X81.431 Y138.389 E6.34058
G1 X81.188 Y138.336 E6.34885
G1 X80.491 Y138.16 E6.37276
G1 X80.192 Y138.074 E6.38311
G1 X79.712 Y137.924 E6.39984
G1 X79.49 Y137.849 E6.40763
G1 X78.664 Y137.533 E6.43705
G1 X78.578 Y137.496 E6.44016
G1 X78.148 Y137.3 E6.45588
G1 X77.953 Y137.206 E6.46308
G1 X77.228 Y136.822 E6.49037
G1 X76.79 Y136.569 E6.50719
G1 X75.984 Y136.056 E6.53897
G1 X75.784 Y135.916 E6.54709
G1 X74.914 Y135.239 E6.58375
G1 X74.496 Y134.879 E6.6021
G1 X73.812 Y134.237 E6.6333
G1 X73.284 Y133.658 E6.65936
G1 X73.033 Y133.362 E6.67227
G1 X72.747 Y133.011 E6.68733
G1 X72.496 Y132.689 E6.70091
G1 X71.952 Y131.925 E6.7321
G1 X71.59 Y131.329 E6.7553
G1 X71.365 Y130.93 E6.77053
G1 X70.975 Y130.171 E6.79891
G1 X70.873 Y129.952 E6.80695
G1 X70.603 Y129.32 E6.82981
G1 X70.527 Y129.126 E6.83674
G1 X70.346 Y128.631 E6.85427
G1 X70.208 Y128.222 E6.86862
G1 X69.947 Y127.321 E6.89982
G1 X69.812 Y126.691 E6.92125
G1 X69.734 Y126.266 E6.93563
G1 X69.611 Y125.41 E6.96439
G1 X69.576 Y125.071 E6.97572
G1 X69.519 Y124.066 E7.0092
G1 X69.515 Y123.713 E7.02095
G1 X69.551 Y122.691 E7.05496
G1 X69.569 Y122.471 E7.0623
G1 X69.604 Y122.113 E7.07426
G1 X69.79 Y120.496 E7.1284
G1 X70.053 Y117.872 E7.21611
G1 X70.234 Y115.376 E7.29935
G1 X70.343 Y112.89 E7.38211
G1 X70.383 Y110.332 E7.4672
G1 X70.351 Y107.843 E7.54999
G1 X70.248 Y105.322 E7.63391
G1 X70.073 Y102.806 E7.7178
G1 X69.823 Y100.255 E7.80305
G1 X69.699 Y99.255 E7.83656
G1 X69.591 Y98.283 E7.86909
G1 X69.538 Y97.627 E7.89098
G1 X69.521 Y97.07 E7.90952
G1 X69.518 Y96.533 E7.92738
G1 X69.563 Y95.476 E7.96256
G1 X69.583 Y95.256 E7.96991
G1 X69.722 Y94.251 E8.00366
G1 X69.816 Y93.743 E8.02084
G1 X70.025 Y92.828 E8.05206
G1 X70.172 Y92.339 E8.06904
G1 X70.284 Y91.995 E8.08107
G1 X70.489 Y91.421 E8.10134
G1 X70.56 Y91.238 E8.10787
G1 X70.747 Y90.787 E8.12411
G1 X70.835 Y90.587 E8.13138
G1 X71.227 Y89.785 E8.16107
G1 X71.473 Y89.33 E8.17827
G1 X71.89 Y88.622 E8.2056
G1 X71.924 Y88.569 E8.2077
G1 X72.517 Y87.734 E8.24176
G1 X72.757 Y87.427 E8.25472
G1 X73.043 Y87.077 E8.26975
G1 X73.253 Y86.83 E8.28054
G1 X74.119 Y85.921 E8.32229
G1 X74.397 Y85.661 E8.33495
G1 X74.876 Y85.239 E8.35619
G0 F13200 X75.132 Y85.546
G1 F2700 X75.251 Y85.447 E8.36134
G1 X75.932 Y84.926 E8.38985
G1 X76.35 Y84.632 E8.40685
G1 X77.386 Y83.989 E8.44741
G1 X77.57 Y83.889 E8.45437
G1 X78.094 Y83.622 E8.47393
G1 X78.284 Y83.532 E8.48092
G1 X78.859 Y83.281 E8.50179
G1 X79.241 Y83.127 E8.51549
G1 X79.817 Y82.914 E8.53592
G1 X79.903 Y82.885 E8.53894
G1 X80.595 Y82.677 E8.56297
G1 X81.082 Y82.549 E8.57972
G1 X81.982 Y82.354 E8.61034
G1 X82.44 Y82.286 E8.62575
G1 X82.912 Y82.226 E8.64157
G1 X83.442 Y82.172 E8.65929
G1 X83.693 Y82.153 E8.66766
G1 X86.35 Y81.931 E8.75634
G1 X87.831 Y81.775 E8.80587
G1 X88.75 Y81.718 E8.8365
G1 X90.065 Y81.775 E8.88028
G1 X90.253 Y81.795 E8.88656
G1 X91.513 Y82.007 E8.92906
G1 X94.103 Y82.604 E9.01746
G1 X96.632 Y83.113 E9.10326
G1 X99.114 Y83.537 E9.18701
G1 X101.58 Y83.889 E9.26986
G1 X104.1 Y84.176 E9.35422
G1 X106.633 Y84.392 E9.43877
G1 X109.148 Y84.535 E9.52256
G1 X111.692 Y84.608 E9.60721
G1 X114.203 Y84.608 E9.69072
G1 X116.75 Y84.537 E9.77547
G1 X119.258 Y84.396 E9.85902
G1 X121.786 Y84.181 E9.9434
G1 X124.263 Y83.9 E10.02632
G1 X126.818 Y83.537 E10.11215
G1 X129.259 Y83.119 E10.19452
G1 X132.229 Y82.519 E10.2953
G1 X132.619 Y82.433 E10.30858
G1 X133.369 Y82.297 E10.33393
G1 X133.638 Y82.258 E10.34297
G1 X134.558 Y82.165 E10.37373
G1 X134.646 Y82.16 E10.37666
G1 X135.152 Y82.143 E10.3935
G1 X135.599 Y82.139 E10.40837
G1 X136.318 Y82.157 E10.43229
G1 X137.152 Y82.237 E10.46015
G1 X137.861 Y82.335 E10.48396
G1 X137.893 Y82.34 E10.48504
G1 X138.858 Y82.537 E10.5178
G1 X139.332 Y82.657 E10.53406
G1 X140.256 Y82.936 E10.56616
G1 X140.568 Y83.046 E10.57716
G1 X141.44 Y83.398 E10.60844
G1 X141.508 Y83.429 E10.61093
G1 X142.023 Y83.681 E10.63
G1 X142.241 Y83.795 E10.63818
G1 X142.622 Y84.004 E10.65263
G1 X143.054 Y84.253 E10.66922
G1 X143.971 Y84.847 E10.70556
G1 X144.137 Y84.967 E10.71237
G1 X144.617 Y85.334 E10.73247
G1 X144.794 Y85.478 E10.74005
G1 X145.23 Y85.854 E10.7592
G1 X145.426 Y86.032 E10.76801
G1 X145.98 Y86.573 E10.79376
G1 X146.136 Y86.737 E10.80129
G1 X146.516 Y87.159 E10.82018
G1 X146.911 Y87.643 E10.84096
G1 X147.234 Y88.064 E10.85861
G1 X147.762 Y88.818 E10.88922
G1 X148.055 Y89.306 E10.90815
G1 X148.283 Y89.71 E10.92358
G1 X148.65 Y90.421 E10.9502
G1 X148.695 Y90.517 E10.95372
G1 X148.853 Y90.87 E10.96659
G1 X149.037 Y91.303 E10.98223
G1 X149.448 Y92.451 E11.02279
G1 X149.535 Y92.746 E11.03302
G1 X149.703 Y93.39 E11.05516
G1 X149.744 Y93.57 E11.0613
G1 X149.93 Y94.63 E11.09709
G1 X150.006 Y95.248 E11.1178
G1 X150.084 Y96.368 E11.15514
G1 X150.089 Y96.672 E11.16525
G1 X150.024 Y98.03 E11.21047
G1 X149.777 Y100.227 E11.28401
G1 X149.534 Y102.711 E11.36702
G1 X149.355 Y105.279 E11.45264
G1 X149.251 Y107.8 E11.53656
G1 X149.219 Y110.305 E11.61988
G1 X149.259 Y112.858 E11.7048
G1 X149.369 Y115.388 E11.78903
G1 X149.549 Y117.874 E11.87193
G1 X149.807 Y120.443 E11.95781
G1 X149.847 Y120.766 E11.96863
G1 X149.985 Y121.956 E12.00848
G1 X150.014 Y122.23 E12.01764
G1 X150.04 Y122.52 E12.02733
G1 X150.079 Y123.217 E12.05055
G1 X150.087 Y123.556 E12.06182
G1 X150.082 Y124.213 E12.08368
G1 X150.076 Y124.369 E12.08887
G1 X150.005 Y125.25 E12.11827
G1 X149.946 Y125.732 E12.13442
G1 X149.861 Y126.302 E12.15358
G1 X149.848 Y126.375 E12.15605
G1 X149.651 Y127.259 E12.18617
G1 X149.527 Y127.722 E12.20212
G1 X149.176 Y128.8 E12.23982
G1 X149.074 Y129.064 E12.24924
G1 X148.707 Y129.903 E12.27969
G1 X148.569 Y130.185 E12.29014
G1 X148.359 Y130.593 E12.3054
G1 X148.162 Y130.955 E12.31911
G1 X147.773 Y131.612 E12.3445
G1 X147.739 Y131.665 E12.3466
G1 X147.168 Y132.469 E12.3794
G1 X146.928 Y132.776 E12.39236
G1 X146.653 Y133.114 E12.40685
G1 X146.443 Y133.361 E12.41763
G1 X145.753 Y134.098 E12.45121
G1 X145.613 Y134.234 E12.4577
G1 X145.301 Y134.525 E12.47189
G1 X145.07 Y134.732 E12.48221
G1 X144.454 Y135.244 E12.50885
G1 X144.303 Y135.36 E12.51518
G1 X143.886 Y135.664 E12.53235
G1 X143.713 Y135.784 E12.53935
G1 X143.181 Y136.13 E12.56046
G1 X143.061 Y136.203 E12.56513
G1 X142.635 Y136.449 E12.58149
G1 X142.452 Y136.549 E12.58843
G1 X142.158 Y136.704 E12.59948
G1 X141.923 Y136.823 E12.60824
G1 X141.264 Y137.128 E12.63239
G1 X141.186 Y137.161 E12.63521
G1 X140.572 Y137.399 E12.65711
G1 X140.225 Y137.521 E12.66935
G1 X139.406 Y137.772 E12.69784
G1 X138.927 Y137.898 E12.71431
G1 X137.833 Y138.125 E12.75147
G1 X137.578 Y138.164 E12.76005
G1 X136.699 Y138.261 E12.78947
G1 X136.553 Y138.271 E12.79433
G1 X136.14 Y138.291 E12.80809
G1 X135.629 Y138.306 E12.82509
G1 X134.741 Y138.295 E12.85463
G1 X134.686 Y138.292 E12.85646
G1 X134.086 Y138.242 E12.87648
G1 X133.728 Y138.202 E12.88847
G1 X132.739 Y138.044 E12.92178
G1 X132.188 Y137.929 E12.9405
G1 X131.861 Y137.856 E12.95164
G1 X131.104 Y137.673 E12.97755
G1 X128.629 Y137.109 E13.06197
G1 X126.111 Y136.61 E13.14735
G1 X123.655 Y136.195 E13.2302
G1 X121.118 Y135.84 E13.3154
G1 X118.615 Y135.562 E13.39916
G1 X116.078 Y135.352 E13.48383
G1 X113.574 Y135.216 E13.56724
G1 X111.064 Y135.151 E13.65075
G1 X108.512 Y135.158 E13.73563
G1 X106.01 Y135.234 E13.81888
G1 X103.454 Y135.385 E13.90404
G1 X100.929 Y135.605 E13.98834
G1 X98.437 Y135.895 E14.07179
G1 X95.957 Y136.254 E14.15513
G1 X93.433 Y136.693 E14.24034
G1 X90.983 Y137.19 E14.32349
G1 X88.827 Y137.699 E14.39717
G1 X87.389 Y138.015 E14.44614
G1 X86.661 Y138.148 E14.47075
G1 X86.382 Y138.189 E14.48013
G1 X85.442 Y138.285 E14.51156
G1 X85.354 Y138.29 E14.51449
G1 X84.848 Y138.307 E14.53133
G1 X84.401 Y138.311 E14.5462
G1 X83.682 Y138.293 E14.57012
G1 X82.848 Y138.213 E14.59799
G1 X82.353 Y138.146 E14.6146
G1 X81.516 Y137.999 E14.64286
G1 X81.273 Y137.946 E14.65114
G1 X80.602 Y137.776 E14.67416
G1 X80.303 Y137.69 E14.68451
G1 X79.84 Y137.545 E14.70064
G1 X79.618 Y137.47 E14.70844
G1 X78.822 Y137.165 E14.73679
G1 X78.736 Y137.128 E14.7399
G1 X78.322 Y136.939 E14.75504
G1 X78.127 Y136.845 E14.76224
G1 X77.428 Y136.476 E14.78853
G1 X76.99 Y136.223 E14.80535
G1 X76.213 Y135.728 E14.836
G1 X76.013 Y135.588 E14.84412
G1 X75.175 Y134.936 E14.87943
G1 X74.757 Y134.576 E14.89778
G1 X74.086 Y133.945 E14.92841
G1 X73.589 Y133.4 E14.95295
G1 X73.338 Y133.104 E14.96585
G1 X73.063 Y132.765 E14.98037
G1 X72.812 Y132.443 E14.99395
G1 X72.278 Y131.693 E15.02457
G1 X71.939 Y131.133 E15.04635
G1 X71.714 Y130.734 E15.06158
G1 X71.338 Y130.002 E15.08895
G1 X71.236 Y129.783 E15.09699
G1 X70.975 Y129.174 E15.11902
G1 X70.899 Y128.98 E15.12595
G1 X70.725 Y128.503 E15.14284
G1 X70.587 Y128.094 E15.1572
G1 X70.331 Y127.21 E15.18781
G1 X70.205 Y126.618 E15.20794
G1 X70.127 Y126.193 E15.22231
G1 X70.009 Y125.369 E15.25
G1 X69.974 Y125.03 E15.26133
G1 X69.919 Y124.061 E15.29361
G1 X69.915 Y123.708 E15.30536
G1 X69.949 Y122.724 E15.3381
G1 X69.967 Y122.504 E15.34544
G1 X70.001 Y122.159 E15.35697
G1 X70.19 Y120.515 E15.41201
G1 X70.452 Y117.907 E15.49919
G1 X70.632 Y115.421 E15.58209
G1 X70.743 Y112.878 E15.66676
G1 X70.783 Y110.333 E15.75141
G1 X70.751 Y107.822 E15.83494
G1 X70.648 Y105.312 E15.91849
G1 X70.469 Y102.74 E16.00424
G1 X70.225 Y100.245 E16.08762
G1 X70.097 Y99.211 E16.12227
G1 X69.989 Y98.239 E16.1548
G1 X69.938 Y97.606 E16.17592
