;FLAVOR:Marlin
;TIME:2925
;Filament used: 1.66111m
;Layer height: 0.2
;MINX:69.515
;MINY:56.81
;MINZ:0.2
;MAXX:150.489
;MAXY:163.185
;MAXZ:8
;Generated with Cura_SteamEngine 4.11.0
M140 S45
M105
M190 S45
M104 S205
M105
M109 S205
M82 ;absolute extrusion mode
; Ender 3 Custom Start G-code
G92 E0 ; Reset Extruder
G28 ; Home all axes
G1 Z2.0 F3000 ; Move Z Axis up little to prevent scratching of Heat Bed
G1 X0.1 Y20 Z0.3 F5000.0 ; Move to start position
G1 X0.1 Y200.0 Z0.3 F1500.0 E15 ; Draw the first line
G1 X0.4 Y200.0 Z0.3 F5000.0 ; Move to side a little
G1 X0.4 Y20 Z0.3 F1500.0 E30 ; Draw the second line
G92 E0 ; Reset Extruder
G1 Z2.0 F3000 ; Move Z Axis up little to prevent scratching of Heat Bed
G1 X5 Y20 Z0.3 F5000.0 ; Move over to prevent blob squish
G92 E0
G92 E0
G1 F1200 E-4
;LAYER_COUNT:40
;LAYER:0
M107
G0 F13200 X92.207 Y63.225 Z0.2
;TYPE:SKIRT
G1 F1200 E0
G1 F2700 X92.691 Y62.567 E0.02717
G1 X92.768 Y62.47 E0.03129
G1 X93.084 Y62.089 E0.04775
G1 X93.258 Y61.889 E0.05657
G1 X93.779 Y61.331 E0.08196
G1 X93.885 Y61.225 E0.08695
G1 X94.16 Y60.959 E0.09967
G1 X94.487 Y60.654 E0.11454
G1 X95.327 Y59.946 E0.15108
G1 X95.503 Y59.812 E0.15844
G1 X96.096 Y59.39 E0.18265
G1 X96.294 Y59.259 E0.19054
G1 X96.906 Y58.882 E0.21445
G1 X97.258 Y58.687 E0.22783
G1 X97.663 Y58.471 E0.2431
G1 X98.57 Y58.039 E0.27651
G1 X98.741 Y57.967 E0.28269
G1 X99.291 Y57.753 E0.30231
G1 X99.497 Y57.679 E0.3096
G1 X99.822 Y57.568 E0.32102
G1 X100.155 Y57.46 E0.33266
G1 X101.191 Y57.179 E0.36836
G1 X101.396 Y57.134 E0.37534
G1 X101.968 Y57.024 E0.39472
G1 X102.126 Y56.998 E0.40004
G1 X102.639 Y56.926 E0.41727
G1 X102.888 Y56.897 E0.42561
G1 X103.612 Y56.837 E0.44977
G1 X103.852 Y56.825 E0.45777
G1 X104.322 Y56.811 E0.47341
G1 X104.461 Y56.81 E0.47803
G1 X105.251 Y56.833 E0.50432
G1 X105.699 Y56.862 E0.51925
G1 X106.704 Y56.974 E0.55288
G1 X107.246 Y57.071 E0.57119
G1 X107.804 Y57.186 E0.59014
G1 X108.898 Y57.471 E0.62774
G1 X109.148 Y57.55 E0.63646
G1 X109.906 Y57.82 E0.66323
G1 X110.162 Y57.922 E0.67239
G1 X110.553 Y58.087 E0.68651
G1 X111.093 Y58.342 E0.70637
G1 X111.457 Y58.526 E0.71994
G1 X112.357 Y59.035 E0.75433
G1 X112.592 Y59.183 E0.76356
G1 X113.388 Y59.735 E0.79578
G1 X113.484 Y59.808 E0.79979
G1 X113.778 Y60.04 E0.81225
G1 X114.163 Y60.354 E0.82877
G1 X114.854 Y60.967 E0.8595
G1 X116.048 Y62.121 E0.91472
G1 X116.178 Y62.234 E0.92045
G1 X116.923 Y62.958 E0.95501
G1 X118.739 Y64.627 E1.03704
G1 X120.677 Y66.307 E1.12235
G1 X122.61 Y67.892 E1.20549
G1 X124.606 Y69.435 E1.2894
G1 X126.634 Y70.912 E1.37284
G1 X128.737 Y72.355 E1.45767
G1 X130.835 Y73.71 E1.54074
G1 X131.317 Y74.006 E1.55955
G1 X131.658 Y74.224 E1.57302
G1 X131.822 Y74.333 E1.57956
G1 X132.47 Y74.798 E1.60609
G1 X132.874 Y75.111 E1.62309
G1 X133.506 Y75.64 E1.6505
G1 X133.68 Y75.797 E1.6583
G1 X133.928 Y76.027 E1.66955
G1 X134.031 Y76.126 E1.6743
G1 X135.883 Y77.849 E1.75843
G1 X137.771 Y79.509 E1.84205
G1 X139.707 Y81.116 E1.92573
G1 X141.688 Y82.668 E2.00943
G1 X143.768 Y84.205 E2.09545
G1 X144.174 Y84.495 E2.11205
G1 X144.475 Y84.718 E2.12451
G1 X144.869 Y85.024 E2.1411
G1 X145.046 Y85.168 E2.14869
G1 X145.499 Y85.558 E2.16857
G1 X145.695 Y85.736 E2.17738
G1 X146.27 Y86.298 E2.20412
G1 X146.426 Y86.462 E2.21165
G1 X146.774 Y86.845 E2.22886
G1 X146.819 Y86.897 E2.23115
G1 X147.228 Y87.399 E2.25268
G1 X147.551 Y87.82 E2.27033
G1 X148.09 Y88.588 E2.30154
G1 X148.404 Y89.11 E2.3218
G1 X148.632 Y89.514 E2.33723
G1 X149.012 Y90.251 E2.36481
G1 X149.057 Y90.347 E2.36833
G1 X149.221 Y90.714 E2.3817
G1 X149.405 Y91.147 E2.39735
G1 X149.832 Y92.337 E2.4394
G1 X149.919 Y92.632 E2.44963
G1 X150.093 Y93.301 E2.47262
G1 X150.134 Y93.481 E2.47876
G1 X150.327 Y94.581 E2.51591
G1 X150.403 Y95.199 E2.53662
G1 X150.484 Y96.361 E2.57536
G1 X150.489 Y96.665 E2.58547
G1 X150.464 Y97.603 E2.61668
G1 X150.421 Y98.075 E2.63244
G1 X150.188 Y100.145 E2.70173
G1 X149.93 Y102.777 E2.78969
G1 X149.756 Y105.289 E2.87344
G1 X149.651 Y107.821 E2.95772
G1 X149.619 Y110.304 E3.04032
G1 X149.659 Y112.835 E3.12451
G1 X149.769 Y115.376 E3.2091
G1 X149.947 Y117.841 E3.2913
G1 X150.205 Y120.397 E3.37675
G1 X150.245 Y120.72 E3.38757
G1 X150.383 Y121.91 E3.42742
G1 X150.412 Y122.195 E3.43694
G1 X150.438 Y122.485 E3.44663
G1 X150.479 Y123.207 E3.47068
G1 X150.487 Y123.546 E3.48196
G1 X150.482 Y124.229 E3.50468
G1 X150.476 Y124.385 E3.50987
G1 X150.403 Y125.298 E3.54033
G1 X150.344 Y125.78 E3.55648
G1 X150.255 Y126.373 E3.57643
G1 X150.242 Y126.446 E3.57889
G1 X150.038 Y127.363 E3.61014
G1 X149.914 Y127.826 E3.62608
G1 X149.549 Y128.944 E3.6652
G1 X149.447 Y129.208 E3.67461
G1 X149.066 Y130.079 E3.70623
G1 X148.928 Y130.361 E3.71667
G1 X148.704 Y130.795 E3.73292
G1 X148.507 Y131.156 E3.7466
G1 X148.071 Y131.886 E3.77488
G1 X147.545 Y132.694 E3.80694
G1 X146.159 Y134.887 E3.89323
G1 X144.86 Y137.08 E3.978
G1 X143.652 Y139.256 E4.06078
G1 X142.49 Y141.493 E4.14462
G1 X141.389 Y143.772 E4.22881
G1 X140.364 Y146.056 E4.31207
G1 X139.389 Y148.401 E4.39654
G1 X138.496 Y150.733 E4.47959
G1 X137.883 Y152.509 E4.54208
G1 X137.574 Y153.363 E4.57229
G1 X137.397 Y153.818 E4.58853
G1 X137.333 Y153.973 E4.59411
G1 X137.076 Y154.55 E4.61511
G1 X136.983 Y154.743 E4.62224
G1 X136.604 Y155.461 E4.64924
G1 X136.351 Y155.9 E4.6661
G1 X135.825 Y156.724 E4.69861
G1 X135.684 Y156.925 E4.70678
G1 X135.015 Y157.785 E4.74302
G1 X134.656 Y158.202 E4.76132
G1 X134.015 Y158.886 E4.7925
G1 X133.437 Y159.413 E4.81851
G1 X133.14 Y159.665 E4.83147
G1 X132.791 Y159.948 E4.84641
G1 X132.472 Y160.197 E4.85987
G1 X131.709 Y160.742 E4.89106
G1 X131.105 Y161.109 E4.91456
G1 X130.704 Y161.335 E4.92987
G1 X129.982 Y161.707 E4.95689
G1 X129.765 Y161.809 E4.96486
G1 X129.113 Y162.09 E4.98848
G1 X128.93 Y162.162 E4.99502
G1 X128.434 Y162.344 E5.01259
G1 X128.015 Y162.486 E5.0273
G1 X127.114 Y162.749 E5.05852
G1 X126.476 Y162.886 E5.08023
G1 X126.047 Y162.965 E5.09473
G1 X125.185 Y163.089 E5.1237
G1 X124.846 Y163.124 E5.13503
G1 X123.841 Y163.181 E5.16851
G1 X123.49 Y163.185 E5.18019
G1 X122.476 Y163.15 E5.21394
G1 X122.254 Y163.132 E5.22134
G1 X121.888 Y163.096 E5.23358
G1 X120.271 Y162.91 E5.28771
G1 X117.647 Y162.647 E5.37542
G1 X115.151 Y162.466 E5.45866
G1 X112.665 Y162.357 E5.54142
G1 X110.107 Y162.317 E5.62651
G1 X107.619 Y162.349 E5.70927
G1 X105.097 Y162.452 E5.79322
G1 X102.582 Y162.627 E5.87707
G1 X100.063 Y162.874 E5.96126
G1 X99.175 Y162.984 E5.99102
G1 X98.06 Y163.108 E6.02833
G1 X97.383 Y163.163 E6.05092
G1 X96.844 Y163.179 E6.06886
G1 X96.309 Y163.182 E6.08665
G1 X95.251 Y163.137 E6.12187
G1 X95.031 Y163.117 E6.12922
G1 X94.026 Y162.978 E6.16297
G1 X93.518 Y162.884 E6.18015
G1 X92.603 Y162.675 E6.21137
G1 X92.114 Y162.528 E6.22835
G1 X91.77 Y162.416 E6.24038
G1 X91.196 Y162.211 E6.26065
G1 X91.013 Y162.14 E6.26718
G1 X90.562 Y161.953 E6.28342
G1 X90.362 Y161.865 E6.29069
G1 X89.553 Y161.469 E6.32065
G1 X89.097 Y161.222 E6.3379
G1 X88.347 Y160.777 E6.3669
G1 X88.29 Y160.74 E6.36916
G1 X87.506 Y160.18 E6.40121
G1 X87.204 Y159.944 E6.41395
G1 X86.846 Y159.653 E6.4293
G1 X86.597 Y159.441 E6.44018
G1 X85.816 Y158.707 E6.47582
G1 X85.675 Y158.561 E6.48257
G1 X85.28 Y158.13 E6.50202
G1 X85.063 Y157.88 E6.51303
G1 X84.37 Y156.993 E6.55047
G1 X84.077 Y156.576 E6.56742
G1 X83.405 Y155.491 E6.60987
G1 X83.301 Y155.299 E6.61713
G1 X83.039 Y154.783 E6.63638
G1 X82.952 Y154.6 E6.64312
G1 X82.668 Y153.949 E6.66674
G1 X82.505 Y153.54 E6.68138
G1 X82.351 Y153.131 E6.69592
G1 X81.899 Y151.85 E6.7411
G1 X80.971 Y149.337 E6.8302
G1 X80.028 Y146.992 E6.91427
G1 X79.036 Y144.712 E6.99697
G1 X77.95 Y142.397 E7.08201
G1 X76.825 Y140.166 E7.16512
G1 X75.635 Y137.965 E7.24834
G1 X74.364 Y135.763 E7.3329
G1 X73.061 Y133.647 E7.41555
G1 X72.686 Y133.075 E7.4383
G1 X72.589 Y132.913 E7.44458
G1 X71.937 Y131.903 E7.48457
G1 X71.6 Y131.346 E7.50622
G1 X71.37 Y130.939 E7.52177
G1 X70.975 Y130.171 E7.55049
G1 X70.873 Y129.952 E7.55853
G1 X70.605 Y129.327 E7.58115
G1 X70.532 Y129.141 E7.58779
G1 X70.354 Y128.653 E7.60507
G1 X70.214 Y128.24 E7.61957
G1 X69.951 Y127.34 E7.65076
G1 X69.814 Y126.701 E7.67249
G1 X69.735 Y126.272 E7.687
G1 X69.611 Y125.41 E7.71597
G1 X69.576 Y125.071 E7.7273
G1 X69.519 Y124.066 E7.76078
G1 X69.515 Y123.713 E7.77253
G1 X69.551 Y122.691 E7.80654
G1 X69.569 Y122.471 E7.81388
G1 X69.604 Y122.113 E7.82584
G1 X69.79 Y120.496 E7.87998
G1 X70.053 Y117.872 E7.96769
G1 X70.234 Y115.376 E8.05093
G1 X70.343 Y112.89 E8.13369
G1 X70.383 Y110.332 E8.21878
G1 X70.351 Y107.843 E8.30157
G1 X70.248 Y105.322 E8.38549
G1 X70.073 Y102.806 E8.46938
G1 X69.823 Y100.255 E8.55463
G1 X69.699 Y99.255 E8.58814
G1 X69.591 Y98.283 E8.62067
G1 X69.538 Y97.627 E8.64256
G1 X69.521 Y97.07 E8.6611
G1 X69.518 Y96.533 E8.67896
G1 X69.563 Y95.476 E8.71414
G1 X69.583 Y95.256 E8.72149
G1 X69.722 Y94.251 E8.75524
G1 X69.816 Y93.743 E8.77242
G1 X70.025 Y92.828 E8.80364
G1 X70.172 Y92.339 E8.82062
G1 X70.284 Y91.995 E8.83265
G1 X70.489 Y91.421 E8.85292
G1 X70.56 Y91.238 E8.85945
G1 X70.747 Y90.787 E8.87569
G1 X70.835 Y90.587 E8.88296
G1 X71.227 Y89.785 E8.91265
G1 X71.473 Y89.33 E8.92985
G1 X71.89 Y88.622 E8.95718
G1 X71.924 Y88.569 E8.95928
G1 X72.517 Y87.734 E8.99334
G1 X72.757 Y87.427 E9.0063
G1 X73.043 Y87.077 E9.02133
G1 X73.253 Y86.83 E9.03212
G1 X73.99 Y86.044 E9.06795
G1 X74.521 Y85.531 E9.09251
G1 X74.697 Y85.365 E9.10056
G1 X75.682 Y84.454 E9.14518
G1 X77.473 Y82.702 E9.22851
G1 X79.23 Y80.883 E9.31263
G1 X80.933 Y79.016 E9.39668
G1 X82.571 Y77.115 E9.48014
G1 X84.153 Y75.172 E9.56348
G1 X85.698 Y73.158 E9.6479
G1 X87.168 Y71.128 E9.73126
G1 X88.584 Y69.051 E9.81487
G1 X89.943 Y66.93 E9.89865
G1 X91.251 Y64.755 E9.98307
G1 X91.392 Y64.508 E9.99253
G1 X91.632 Y64.108 E10.00804
G1 X91.853 Y63.757 E10.02184
G1 X92.063 Y63.437 E10.03457
G1 X92.207 Y63.225 E10.04309
G0 F13200 X92.538 Y63.45
G1 F2700 X93.004 Y62.816 E10.06926
G1 X93.081 Y62.719 E10.07338
G1 X93.386 Y62.352 E10.08925
G1 X93.56 Y62.152 E10.09807
G1 X94.062 Y61.614 E10.12255
G1 X94.168 Y61.508 E10.12753
G1 X94.433 Y61.251 E10.13981
G1 X94.76 Y60.946 E10.15468
G1 X95.569 Y60.264 E10.18988
G1 X95.745 Y60.13 E10.19723
G1 X96.317 Y59.724 E10.22056
G1 X96.515 Y59.593 E10.22846
G1 X97.105 Y59.23 E10.2515
G1 X97.446 Y59.04 E10.26448
G1 X97.851 Y58.824 E10.27975
G1 X98.726 Y58.408 E10.31197
G1 X98.897 Y58.336 E10.31814
G1 X99.426 Y58.129 E10.33704
G1 X99.632 Y58.055 E10.34432
G1 X99.946 Y57.948 E10.35535
G1 X100.279 Y57.84 E10.367
G1 X101.276 Y57.57 E10.40135
G1 X101.481 Y57.525 E10.40833
G1 X102.033 Y57.419 E10.42703
G1 X102.191 Y57.393 E10.43235
G1 X102.686 Y57.323 E10.44898
G1 X102.935 Y57.294 E10.45732
G1 X103.632 Y57.236 E10.48058
G1 X103.872 Y57.224 E10.48857
G1 X104.325 Y57.211 E10.50364
G1 X104.464 Y57.21 E10.50827
G1 X105.225 Y57.232 E10.53359
G1 X105.673 Y57.261 E10.54852
G1 X106.641 Y57.369 E10.58092
G1 X107.166 Y57.463 E10.59866
G1 X107.724 Y57.578 E10.61761
G1 X108.778 Y57.853 E10.65384
G1 X109.028 Y57.932 E10.66256
G1 X109.757 Y58.192 E10.6883
G1 X110.013 Y58.294 E10.69746
G1 X110.392 Y58.453 E10.71113
G1 X110.913 Y58.699 E10.7303
G1 X111.277 Y58.883 E10.74386
G1 X112.144 Y59.374 E10.777
G1 X112.379 Y59.522 E10.78624
G1 X113.146 Y60.053 E10.81727
G1 X113.242 Y60.126 E10.82128
G1 X113.526 Y60.35 E10.83331
G1 X113.911 Y60.664 E10.84983
G1 X114.576 Y61.254 E10.8794
G1 X115.737 Y62.375 E10.93308
G1 X115.899 Y62.521 E10.94033
G1 X116.639 Y63.24 E10.97465
G1 X118.49 Y64.941 E11.05826
G1 X120.403 Y66.599 E11.14246
G1 X122.379 Y68.219 E11.22744
G1 X124.355 Y69.747 E11.31052
G1 X126.411 Y71.244 E11.39511
G1 X128.498 Y72.678 E11.47933
G1 X130.621 Y74.048 E11.56337
G1 X131.108 Y74.347 E11.58238
G1 X131.436 Y74.557 E11.59533
G1 X131.6 Y74.666 E11.60188
G1 X132.225 Y75.115 E11.62748
G1 X132.629 Y75.428 E11.64447
G1 X133.238 Y75.937 E11.67087
G1 X133.412 Y76.094 E11.67867
G1 X133.651 Y76.316 E11.68952
G1 X133.731 Y76.393 E11.69321
G1 X135.611 Y78.142 E11.77861
G1 X137.518 Y79.818 E11.86306
G1 X139.467 Y81.437 E11.94733
G1 X141.449 Y82.989 E12.03106
G1 X143.511 Y84.513 E12.11634
G1 X143.736 Y84.672 E12.1255
G1 X143.936 Y84.817 E12.13372
G1 X144.237 Y85.04 E12.14618
G1 X144.617 Y85.334 E12.16216
G1 X144.794 Y85.478 E12.16975
G1 X145.23 Y85.854 E12.18889
G1 X145.426 Y86.032 E12.1977
G1 X145.98 Y86.573 E12.22345
G1 X146.136 Y86.737 E12.23098
G1 X146.516 Y87.159 E12.24987
G1 X146.911 Y87.643 E12.27065
G1 X147.234 Y88.064 E12.2883
G1 X147.762 Y88.818 E12.31891
G1 X148.055 Y89.306 E12.33785
G1 X148.283 Y89.71 E12.35327
G1 X148.65 Y90.421 E12.37989
G1 X148.695 Y90.517 E12.38341
G1 X148.853 Y90.87 E12.39628
G1 X149.037 Y91.303 E12.41192
G1 X149.448 Y92.451 E12.45248
G1 X149.535 Y92.746 E12.46271
G1 X149.703 Y93.39 E12.48485
G1 X149.744 Y93.57 E12.49099
G1 X149.93 Y94.63 E12.52678
G1 X150.006 Y95.248 E12.54749
G1 X150.084 Y96.368 E12.58483
G1 X150.089 Y96.672 E12.59494
G1 X150.024 Y98.03 E12.64016
G1 X149.777 Y100.227 E12.7137
G1 X149.534 Y102.711 E12.79671
G1 X149.355 Y105.279 E12.88233
G1 X149.251 Y107.8 E12.96625
G1 X149.219 Y110.305 E13.04957
G1 X149.259 Y112.858 E13.1345
G1 X149.369 Y115.388 E13.21872
G1 X149.549 Y117.874 E13.30162
G1 X149.807 Y120.443 E13.3875
G1 X149.847 Y120.766 E13.39832
G1 X149.985 Y121.956 E13.43817
G1 X150.014 Y122.23 E13.44733
G1 X150.04 Y122.52 E13.45702
G1 X150.079 Y123.217 E13.48024
G1 X150.087 Y123.556 E13.49151
G1 X150.082 Y124.213 E13.51337
G1 X150.076 Y124.369 E13.51856
G1 X150.005 Y125.25 E13.54796
G1 X149.946 Y125.732 E13.56411
G1 X149.861 Y126.302 E13.58328
G1 X149.848 Y126.375 E13.58574
G1 X149.651 Y127.259 E13.61587
G1 X149.527 Y127.722 E13.63181
G1 X149.176 Y128.8 E13.66951
G1 X149.074 Y129.064 E13.67893
G1 X148.707 Y129.903 E13.70939
G1 X148.569 Y130.185 E13.71983
G1 X148.353 Y130.604 E13.73551
G1 X148.156 Y130.965 E13.74919
G1 X147.736 Y131.668 E13.77642
G1 X147.216 Y132.468 E13.80816
G1 X145.81 Y134.691 E13.89564
G1 X144.525 Y136.861 E13.97952
G1 X143.29 Y139.084 E14.0641
G1 X142.133 Y141.314 E14.14766
G1 X141.022 Y143.613 E14.23259
G1 X139.993 Y145.905 E14.31615
G1 X139.03 Y148.223 E14.39964
G1 X138.117 Y150.604 E14.48445
G1 X137.507 Y152.373 E14.54669
G1 X137.198 Y153.227 E14.57689
G1 X137.028 Y153.665 E14.59252
G1 X136.964 Y153.82 E14.5981
G1 X136.715 Y154.376 E14.61836
G1 X136.622 Y154.569 E14.62549
G1 X136.257 Y155.261 E14.65151
G1 X136.004 Y155.7 E14.66836
G1 X135.498 Y156.494 E14.69967
G1 X135.357 Y156.695 E14.70784
G1 X134.712 Y157.524 E14.74278
G1 X134.353 Y157.941 E14.76108
G1 X133.723 Y158.612 E14.79169
G1 X133.178 Y159.108 E14.8162
G1 X132.881 Y159.36 E14.82915
G1 X132.545 Y159.633 E14.84355
G1 X132.226 Y159.882 E14.85701
G1 X131.477 Y160.416 E14.88761
G1 X130.908 Y160.76 E14.90972
G1 X130.507 Y160.986 E14.92503
G1 X129.812 Y161.345 E14.95105
G1 X129.595 Y161.447 E14.95903
G1 X128.967 Y161.718 E14.98177
G1 X128.784 Y161.79 E14.98832
G1 X128.305 Y161.965 E15.00528
G1 X127.886 Y162.107 E15.01999
G1 X127.002 Y162.365 E15.05062
G1 X126.404 Y162.493 E15.07096
G1 X125.975 Y162.572 E15.08547
G1 X125.144 Y162.691 E15.11339
G1 X124.805 Y162.726 E15.12473
G1 X123.837 Y162.781 E15.15697
G1 X123.486 Y162.785 E15.16865
G1 X122.508 Y162.751 E15.2012
G1 X122.286 Y162.733 E15.2086
G1 X121.934 Y162.699 E15.22037
G1 X120.29 Y162.51 E15.27541
G1 X117.682 Y162.248 E15.36258
G1 X115.196 Y162.068 E15.44549
G1 X112.653 Y161.957 E15.53015
G1 X110.108 Y161.917 E15.6148
G1 X107.598 Y161.949 E15.69829
G1 X105.089 Y162.052 E15.78181
G1 X102.514 Y162.231 E15.86767
G1 X100.048 Y162.473 E15.95008
G1 X98.995 Y162.602 E15.98536
G1 X98.016 Y162.711 E16.01813
G1 X97.364 Y162.763 E16.03988
G1 X96.841 Y162.779 E16.05728
G1 X96.306 Y162.782 E16.07508
