;FLAVOR:Marlin
;TIME:1393
;Filament used: 0.720831m
;Layer height: 0.2
;MINX:87.515
;MINY:81.512
;MINZ:0.2
;MAXX:143.921
;MAXY:147.525
;MAXZ:8
;Generated with Cura_SteamEngine 4.11.0
M140 S45
M105
M190 S45
M104 S205
M105
M109 S205
M82 ;absolute extrusion mode
; Ender 3 Custom Start G-code
G92 E0 ; Reset Extruder
G28 ; Home all axes
G1 Z2.0 F3000 ; Move Z Axis up little to prevent scratching of Heat Bed
G1 X0.1 Y20 Z0.3 F5000.0 ; Move to start position
G1 X0.1 Y200.0 Z0.3 F1500.0 E15 ; Draw the first line
G1 X0.4 Y200.0 Z0.3 F5000.0 ; Move to side a little
G1 X0.4 Y20 Z0.3 F1500.0 E30 ; Draw the second line
G92 E0 ; Reset Extruder
G1 Z2.0 F3000 ; Move Z Axis up little to prevent scratching of Heat Bed
G1 X5 Y20 Z0.3 F5000.0 ; Move over to prevent blob squish
G92 E0
G92 E0
G1 F1200 E-4
;LAYER_COUNT:40
;LAYER:0
M107
G0 F13200 X91.253 Y86.605 Z0.2
;TYPE:SKIRT
G1 F1200 E0
G1 F2700 X92.119 Y85.696 E0.04176
G1 X92.397 Y85.436 E0.05442
G1 X92.876 Y85.014 E0.07565
G1 X92.995 Y84.915 E0.0808
G1 X93.702 Y84.374 E0.11041
G1 X94.12 Y84.08 E0.12741
G1 X95.214 Y83.402 E0.17021
G1 X95.397 Y83.303 E0.17713
G1 X95.9 Y83.047 E0.19591
G1 X96.091 Y82.956 E0.20294
G1 X96.709 Y82.685 E0.22539
G1 X97.091 Y82.531 E0.23909
G1 X97.689 Y82.31 E0.26029
G1 X97.775 Y82.281 E0.26331
G1 X98.494 Y82.065 E0.28828
G1 X98.981 Y81.937 E0.30503
G1 X99.897 Y81.738 E0.3362
G1 X100.389 Y81.664 E0.35275
G1 X100.853 Y81.605 E0.36831
G1 X102.017 Y81.519 E0.40713
G1 X102.36 Y81.512 E0.41854
G1 X103.133 Y81.524 E0.44425
G1 X103.313 Y81.533 E0.45025
G1 X103.994 Y81.588 E0.47297
G1 X104.314 Y81.624 E0.48368
G1 X104.873 Y81.701 E0.50245
G1 X104.964 Y81.716 E0.50552
G1 X105.441 Y81.806 E0.52166
G1 X105.802 Y81.882 E0.53393
G1 X106.9 Y82.173 E0.57171
G1 X107.093 Y82.235 E0.57845
G1 X107.728 Y82.461 E0.60087
G1 X108.22 Y82.653 E0.61844
G1 X109.03 Y83.007 E0.64784
G1 X110.047 Y83.501 E0.68544
G1 X112.389 Y84.601 E0.7715
G1 X114.691 Y85.603 E0.85501
G1 X117.062 Y86.556 E0.94
G1 X119.392 Y87.417 E1.02262
G1 X121.782 Y88.224 E1.10652
G1 X124.196 Y88.963 E1.19049
G1 X126.63 Y89.635 E1.27447
G1 X129.087 Y90.239 E1.35862
G1 X131.237 Y90.706 E1.4318
G1 X131.769 Y90.815 E1.44986
G1 X132.028 Y90.872 E1.45868
G1 X132.418 Y90.962 E1.47199
G1 X133.039 Y91.124 E1.49334
G1 X133.271 Y91.192 E1.50138
G1 X133.978 Y91.426 E1.52615
G1 X134.236 Y91.521 E1.53529
G1 X135.112 Y91.887 E1.56687
G1 X135.393 Y92.019 E1.5772
G1 X136.048 Y92.353 E1.60165
G1 X136.362 Y92.527 E1.61359
G1 X136.952 Y92.879 E1.63644
G1 X137.168 Y93.017 E1.64497
G1 X137.838 Y93.481 E1.67207
G1 X138.017 Y93.615 E1.67951
G1 X138.478 Y93.979 E1.69905
G1 X138.636 Y94.111 E1.70589
G1 X139.105 Y94.527 E1.72675
G1 X139.264 Y94.676 E1.73399
G1 X139.684 Y95.091 E1.75363
G1 X139.822 Y95.235 E1.76027
G1 X140.224 Y95.678 E1.78016
G1 X140.358 Y95.834 E1.787
G1 X140.617 Y96.147 E1.80051
G1 X140.719 Y96.275 E1.80596
G1 X141.045 Y96.706 E1.82393
G1 X141.163 Y96.87 E1.83065
G1 X141.431 Y97.259 E1.84636
G1 X141.536 Y97.419 E1.85273
G1 X141.899 Y98.013 E1.87588
G1 X142.006 Y98.201 E1.88308
G1 X142.223 Y98.601 E1.89821
G1 X142.289 Y98.729 E1.903
G1 X142.56 Y99.293 E1.92381
G1 X142.646 Y99.486 E1.93084
G1 X142.766 Y99.766 E1.94097
G1 X142.863 Y100.001 E1.94943
G1 X143.16 Y100.811 E1.97812
G1 X143.227 Y101.018 E1.98536
G1 X143.376 Y101.515 E2.00262
G1 X143.434 Y101.728 E2.00996
G1 X143.596 Y102.409 E2.03324
G1 X143.637 Y102.609 E2.04003
G1 X143.726 Y103.102 E2.05669
G1 X143.744 Y103.216 E2.06053
G1 X143.829 Y103.88 E2.0828
G1 X143.868 Y104.286 E2.09636
G1 X143.917 Y105.228 E2.12774
G1 X143.921 Y105.628 E2.14104
G1 X143.897 Y106.477 E2.16929
G1 X143.884 Y106.67 E2.17573
G1 X143.826 Y107.277 E2.19601
G1 X143.73 Y108.058 E2.22218
G1 X143.446 Y110.675 E2.30973
G1 X143.246 Y113.182 E2.39338
G1 X143.117 Y115.68 E2.47657
G1 X143.058 Y118.204 E2.56054
G1 X143.07 Y120.721 E2.64426
G1 X143.155 Y123.251 E2.72846
G1 X143.308 Y125.73 E2.81107
G1 X143.537 Y128.266 E2.89576
G1 X143.712 Y129.705 E2.94397
G1 X143.763 Y130.18 E2.95986
G1 X143.803 Y130.58 E2.97323
G1 X143.857 Y131.107 E2.99085
G1 X143.903 Y131.741 E3.01199
G1 X143.917 Y132.057 E3.02251
G1 X143.92 Y132.96 E3.05255
G1 X143.911 Y133.198 E3.06047
G1 X143.858 Y133.94 E3.08521
G1 X143.818 Y134.318 E3.09785
G1 X143.699 Y135.141 E3.12551
G1 X143.66 Y135.354 E3.13271
G1 X143.533 Y135.954 E3.15311
G1 X143.484 Y136.157 E3.16006
G1 X143.318 Y136.766 E3.18105
G1 X143.248 Y136.997 E3.18908
G1 X143.099 Y137.453 E3.20504
G1 X143.06 Y137.564 E3.20895
G1 X142.839 Y138.142 E3.22953
G1 X142.755 Y138.344 E3.23681
G1 X142.618 Y138.66 E3.24826
G1 X142.507 Y138.905 E3.25721
G1 X142.02 Y139.853 E3.29266
G1 X141.845 Y140.157 E3.30432
G1 X141.471 Y140.761 E3.32795
G1 X141.332 Y140.97 E3.3363
G1 X140.923 Y141.544 E3.35974
G1 X140.891 Y141.586 E3.3615
G1 X140.444 Y142.135 E3.38504
G1 X140.046 Y142.593 E3.40523
G1 X139.314 Y143.358 E3.44044
G1 X139.275 Y143.395 E3.44223
G1 X138.727 Y143.881 E3.46659
G1 X138.252 Y144.275 E3.48712
G1 X137.505 Y144.843 E3.51833
G1 X136.994 Y145.177 E3.53863
G1 X136.721 Y145.345 E3.5493
G1 X136.14 Y145.679 E3.57159
G1 X135.863 Y145.827 E3.58203
G1 X134.982 Y146.248 E3.61451
G1 X134.695 Y146.37 E3.62488
G1 X134.304 Y146.528 E3.63891
G1 X134.099 Y146.606 E3.6462
G1 X133.392 Y146.848 E3.67105
G1 X133.067 Y146.947 E3.68235
G1 X132.24 Y147.164 E3.71079
G1 X132.1 Y147.195 E3.71556
G1 X131.53 Y147.305 E3.73487
G1 X131.302 Y147.343 E3.74256
G1 X130.773 Y147.418 E3.76033
G1 X130.568 Y147.442 E3.76719
G1 X129.785 Y147.506 E3.79332
G1 X129.519 Y147.518 E3.80218
G1 X128.723 Y147.525 E3.82865
G1 X128.32 Y147.514 E3.84206
G1 X127.422 Y147.453 E3.872
G1 X127.13 Y147.421 E3.88177
G1 X125.808 Y147.193 E3.92639
G1 X125.209 Y147.052 E3.94686
G1 X124.044 Y146.709 E3.98725
G1 X123.774 Y146.613 E3.99678
G1 X122.925 Y146.271 E4.02722
G1 X122.715 Y146.176 E4.03489
G1 X122.423 Y146.039 E4.04562
G1 X121.444 Y145.561 E4.08185
G1 X119.143 Y144.479 E4.16642
G1 X116.824 Y143.466 E4.25059
G1 X114.446 Y142.505 E4.3359
G1 X112.119 Y141.644 E4.41842
G1 X109.748 Y140.84 E4.50169
G1 X107.325 Y140.095 E4.58601
G1 X104.914 Y139.427 E4.66922
G1 X102.434 Y138.814 E4.75418
G1 X100.504 Y138.389 E4.81991
G1 X99.271 Y138.13 E4.86182
G1 X98.469 Y137.93 E4.88931
G1 X98.169 Y137.843 E4.8997
G1 X97.712 Y137.699 E4.91564
G1 X97.49 Y137.624 E4.92343
G1 X96.608 Y137.283 E4.95488
G1 X96.149 Y137.075 E4.97164
G1 X95.956 Y136.982 E4.97877
G1 X95.238 Y136.603 E5.00577
G1 X94.799 Y136.35 E5.02262
G1 X93.984 Y135.831 E5.05476
G1 X93.784 Y135.691 E5.06288
G1 X92.914 Y135.014 E5.09955
G1 X92.496 Y134.654 E5.11789
G1 X91.812 Y134.012 E5.14909
G1 X91.284 Y133.433 E5.17516
G1 X91.033 Y133.137 E5.18806
G1 X90.747 Y132.786 E5.20312
G1 X90.496 Y132.464 E5.2167
G1 X89.952 Y131.7 E5.2479
G1 X89.59 Y131.104 E5.27109
G1 X89.365 Y130.705 E5.28633
G1 X88.975 Y129.946 E5.31471
G1 X88.873 Y129.727 E5.32274
G1 X88.605 Y129.102 E5.34536
G1 X88.532 Y128.916 E5.35201
G1 X88.354 Y128.428 E5.36928
G1 X88.214 Y128.015 E5.38379
G1 X87.951 Y127.115 E5.41497
G1 X87.814 Y126.476 E5.43671
G1 X87.735 Y126.047 E5.45122
G1 X87.611 Y125.185 E5.48018
G1 X87.576 Y124.846 E5.49152
G1 X87.519 Y123.841 E5.525
G1 X87.515 Y123.488 E5.53674
G1 X87.551 Y122.466 E5.57075
G1 X87.569 Y122.246 E5.5781
G1 X87.604 Y121.888 E5.59006
G1 X87.79 Y120.271 E5.6442
G1 X88.053 Y117.647 E5.73191
G1 X88.234 Y115.151 E5.81514
G1 X88.343 Y112.665 E5.89791
G1 X88.383 Y110.107 E5.983
G1 X88.351 Y107.618 E6.06579
G1 X88.248 Y105.097 E6.14971
G1 X88.073 Y102.581 E6.23359
G1 X87.826 Y100.063 E6.31774
G1 X87.716 Y99.175 E6.3475
G1 X87.592 Y98.06 E6.38482
G1 X87.538 Y97.402 E6.40678
G1 X87.521 Y96.845 E6.42531
G1 X87.518 Y96.308 E6.44317
G1 X87.563 Y95.251 E6.47836
G1 X87.583 Y95.031 E6.48571
G1 X87.72 Y94.035 E6.51915
G1 X87.813 Y93.53 E6.53622
G1 X88.022 Y92.615 E6.56744
G1 X88.172 Y92.116 E6.58477
G1 X88.285 Y91.769 E6.59691
G1 X88.489 Y91.196 E6.61714
G1 X88.56 Y91.013 E6.62367
G1 X88.747 Y90.562 E6.63991
G1 X88.835 Y90.362 E6.64717
G1 X89.227 Y89.56 E6.67686
G1 X89.473 Y89.105 E6.69407
G1 X89.89 Y88.397 E6.7214
G1 X89.924 Y88.344 E6.72349
G1 X90.517 Y87.509 E6.75755
G1 X90.757 Y87.202 E6.77052
G1 X91.043 Y86.852 E6.78555
G1 X91.253 Y86.605 E6.79633
G0 F13200 X91.557 Y86.864
G1 F2700 X92.392 Y85.988 E6.83658
G1 X92.67 Y85.728 E6.84924
G1 X93.132 Y85.321 E6.86972
G1 X93.251 Y85.222 E6.87487
G1 X93.932 Y84.701 E6.90339
G1 X94.35 Y84.407 E6.92039
G1 X95.404 Y83.754 E6.96163
G1 X95.587 Y83.655 E6.96855
G1 X96.072 Y83.409 E6.98663
G1 X96.263 Y83.318 E6.99367
G1 X96.859 Y83.056 E7.01532
G1 X97.241 Y82.902 E7.02902
G1 X97.817 Y82.689 E7.04945
G1 X97.903 Y82.66 E7.05247
G1 X98.595 Y82.452 E7.0765
G1 X99.082 Y82.324 E7.09325
G1 X99.982 Y82.129 E7.12388
G1 X100.44 Y82.061 E7.13928
G1 X100.904 Y82.002 E7.15483
G1 X102.025 Y81.919 E7.19222
G1 X102.368 Y81.912 E7.20363
G1 X103.113 Y81.923 E7.22841
G1 X103.293 Y81.932 E7.23441
G1 X103.949 Y81.985 E7.2563
G1 X104.269 Y82.021 E7.26701
G1 X104.808 Y82.096 E7.28511
G1 X104.899 Y82.111 E7.28817
G1 X105.359 Y82.197 E7.30374
G1 X105.72 Y82.273 E7.31601
G1 X106.778 Y82.554 E7.35242
G1 X106.971 Y82.616 E7.35916
G1 X107.583 Y82.833 E7.38076
G1 X108.075 Y83.025 E7.39832
G1 X108.855 Y83.367 E7.42665
G1 X109.851 Y83.851 E7.46348
G1 X112.238 Y84.972 E7.55119
G1 X114.549 Y85.977 E7.63501
G1 X116.892 Y86.919 E7.719
G1 X119.262 Y87.795 E7.80304
G1 X121.674 Y88.61 E7.88772
G1 X124.078 Y89.346 E7.97134
G1 X126.508 Y90.016 E8.05518
G1 X129.012 Y90.633 E8.14095
G1 X131.15 Y91.096 E8.21371
G1 X131.689 Y91.207 E8.23202
G1 X131.939 Y91.261 E8.24052
G1 X132.329 Y91.351 E8.25383
G1 X132.926 Y91.508 E8.27437
G1 X133.158 Y91.576 E8.28241
G1 X133.84 Y91.801 E8.30629
G1 X134.098 Y91.896 E8.31544
G1 X134.942 Y92.249 E8.34587
G1 X135.223 Y92.381 E8.35619
G1 X135.854 Y92.703 E8.37975
G1 X136.168 Y92.877 E8.39169
G1 X136.737 Y93.216 E8.41372
G1 X136.953 Y93.354 E8.42225
G1 X137.598 Y93.801 E8.44835
G1 X137.777 Y93.935 E8.45579
G1 X138.221 Y94.286 E8.47461
G1 X138.379 Y94.418 E8.48146
G1 X138.831 Y94.818 E8.50153
G1 X138.99 Y94.967 E8.50878
G1 X139.395 Y95.368 E8.52774
G1 X139.533 Y95.512 E8.53437
G1 X139.921 Y95.939 E8.55356
G1 X140.055 Y96.095 E8.5604
G1 X140.304 Y96.396 E8.57339
G1 X140.406 Y96.524 E8.57884
G1 X140.72 Y96.939 E8.59614
G1 X140.838 Y97.103 E8.60286
G1 X141.096 Y97.478 E8.618
G1 X141.201 Y97.638 E8.62437
G1 X141.551 Y98.211 E8.6467
G1 X141.658 Y98.399 E8.6539
G1 X141.867 Y98.784 E8.66847
G1 X141.933 Y98.912 E8.67326
G1 X142.194 Y99.456 E8.69332
G1 X142.28 Y99.649 E8.70035
G1 X142.396 Y99.919 E8.71013
G1 X142.493 Y100.154 E8.71858
G1 X142.78 Y100.934 E8.74623
G1 X142.847 Y101.141 E8.75346
G1 X142.99 Y101.62 E8.77009
G1 X143.048 Y101.833 E8.77743
G1 X143.204 Y102.489 E8.79986
G1 X143.245 Y102.689 E8.80665
G1 X143.331 Y103.165 E8.82274
G1 X143.349 Y103.279 E8.82657
G1 X143.43 Y103.918 E8.848
G1 X143.469 Y104.324 E8.86156
G1 X143.517 Y105.232 E8.89181
G1 X143.521 Y105.632 E8.90511
G1 X143.498 Y106.45 E8.93233
G1 X143.485 Y106.643 E8.93876
G1 X143.429 Y107.228 E8.95831
G1 X143.33 Y108.033 E8.98528
G1 X143.047 Y110.636 E9.07237
G1 X142.848 Y113.13 E9.15559
G1 X142.716 Y115.685 E9.24068
G1 X142.658 Y118.196 E9.32422
G1 X142.67 Y120.736 E9.4087
G1 X142.755 Y123.254 E9.49249
G1 X142.911 Y125.79 E9.577
G1 X143.137 Y128.289 E9.66046
G1 X143.315 Y129.754 E9.70954
G1 X143.365 Y130.221 E9.72516
G1 X143.405 Y130.621 E9.73853
G1 X143.459 Y131.148 E9.75615
G1 X143.504 Y131.759 E9.77653
G1 X143.518 Y132.075 E9.78705
G1 X143.52 Y132.945 E9.81599
G1 X143.511 Y133.183 E9.82391
G1 X143.46 Y133.897 E9.84772
G1 X143.42 Y134.275 E9.86036
G1 X143.306 Y135.069 E9.88704
G1 X143.267 Y135.282 E9.89424
G1 X143.144 Y135.86 E9.9139
G1 X143.095 Y136.063 E9.92084
G1 X142.935 Y136.65 E9.94108
G1 X142.865 Y136.881 E9.94911
G1 X142.722 Y137.321 E9.96449
G1 X142.683 Y137.432 E9.96841
G1 X142.469 Y137.988 E9.98822
G1 X142.385 Y138.19 E9.9955
G1 X142.253 Y138.494 E10.00652
G1 X142.142 Y138.739 E10.01547
G1 X141.674 Y139.653 E10.04962
G1 X141.499 Y139.957 E10.06129
G1 X141.138 Y140.539 E10.08407
G1 X140.999 Y140.748 E10.09242
G1 X140.605 Y141.302 E10.11503
G1 X140.573 Y141.344 E10.11678
G1 X140.142 Y141.873 E10.13948
G1 X139.744 Y142.331 E10.15966
G1 X139.039 Y143.068 E10.19358
G1 X139 Y143.105 E10.19537
G1 X138.471 Y143.574 E10.21888
G1 X137.996 Y143.968 E10.23941
G1 X137.263 Y144.524 E10.27001
G1 X136.784 Y144.837 E10.28904
G1 X136.511 Y145.005 E10.2997
G1 X135.951 Y145.326 E10.32117
G1 X135.674 Y145.474 E10.33162
G1 X134.826 Y145.88 E10.36289
G1 X134.539 Y146.002 E10.37326
G1 X134.162 Y146.154 E10.38678
G1 X133.957 Y146.232 E10.39407
G1 X133.276 Y146.465 E10.41801
G1 X132.951 Y146.564 E10.42931
G1 X132.154 Y146.773 E10.45672
G1 X132.014 Y146.804 E10.46149
G1 X131.465 Y146.911 E10.48009
G1 X131.237 Y146.949 E10.48778
G1 X130.727 Y147.021 E10.50491
G1 X130.522 Y147.045 E10.51177
G1 X129.767 Y147.106 E10.53697
G1 X129.501 Y147.118 E10.54582
G1 X128.734 Y147.125 E10.57133
G1 X128.331 Y147.114 E10.58474
G1 X127.465 Y147.055 E10.61361
G1 X127.173 Y147.023 E10.62338
G1 X125.899 Y146.804 E10.66638
G1 X125.3 Y146.663 E10.68685
G1 X124.178 Y146.332 E10.72575
G1 X123.908 Y146.236 E10.73528
G1 X123.09 Y145.907 E10.76461
G1 X122.88 Y145.812 E10.77228
G1 X122.598 Y145.679 E10.78265
G1 X121.638 Y145.21 E10.81818
G1 X119.295 Y144.108 E10.9043
G1 X116.986 Y143.099 E10.98811
G1 X114.598 Y142.135 E11.07376
G1 X112.238 Y141.262 E11.15745
G1 X109.889 Y140.466 E11.23995
G1 X107.445 Y139.713 E11.32501
G1 X105.012 Y139.039 E11.40897
G1 X102.538 Y138.428 E11.49373
G1 X100.575 Y137.996 E11.56058
G1 X99.353 Y137.739 E11.60212
G1 X98.581 Y137.546 E11.62858
G1 X98.281 Y137.459 E11.63897
G1 X97.84 Y137.32 E11.65435
G1 X97.618 Y137.245 E11.66215
G1 X96.768 Y136.917 E11.69245
G1 X96.681 Y136.879 E11.69561
G1 X96.323 Y136.714 E11.70872
G1 X96.13 Y136.621 E11.71584
G1 X95.438 Y136.256 E11.74187
G1 X94.999 Y136.003 E11.75872
G1 X94.213 Y135.503 E11.7897
G1 X94.013 Y135.363 E11.79782
G1 X93.175 Y134.711 E11.83314
G1 X92.757 Y134.351 E11.85148
G1 X92.086 Y133.72 E11.88212
G1 X91.589 Y133.175 E11.90665
G1 X91.338 Y132.879 E11.91956
G1 X91.063 Y132.54 E11.93408
G1 X90.812 Y132.218 E11.94766
G1 X90.278 Y131.468 E11.97828
G1 X89.939 Y130.908 E12.00005
G1 X89.714 Y130.509 E12.01529
G1 X89.338 Y129.777 E12.04266
G1 X89.236 Y129.558 E12.05069
G1 X88.978 Y128.956 E12.07248
G1 X88.905 Y128.77 E12.07912
G1 X88.733 Y128.3 E12.09577
G1 X88.593 Y127.887 E12.11027
G1 X88.336 Y127.003 E12.14089
G1 X88.207 Y126.404 E12.16127
G1 X88.128 Y125.975 E12.17578
G1 X88.009 Y125.144 E12.2037
G1 X87.974 Y124.805 E12.21504
G1 X87.919 Y123.836 E12.24732
G1 X87.915 Y123.483 E12.25906
G1 X87.949 Y122.499 E12.29181
G1 X87.967 Y122.279 E12.29915
G1 X88.001 Y121.934 E12.31068
G1 X88.19 Y120.29 E12.36572
G1 X88.452 Y117.682 E12.4529
G1 X88.632 Y115.196 E12.5358
G1 X88.743 Y112.653 E12.62046
G1 X88.783 Y110.108 E12.70512
G1 X88.751 Y107.597 E12.78864
G1 X88.648 Y105.087 E12.87219
G1 X88.467 Y102.489 E12.95881
G1 X88.227 Y100.048 E13.04039
G1 X88.098 Y98.995 E13.07568
G1 X87.989 Y98.016 E13.10844
G1 X87.938 Y97.381 E13.12963
G1 X87.921 Y96.843 E13.14753
G1 X87.918 Y96.306 E13.16539
G1 X87.962 Y95.287 E13.19932
G1 X87.982 Y95.067 E13.20666
G1 X88.113 Y94.107 E13.23889
G1 X88.206 Y93.602 E13.25597
G1 X88.412 Y92.705 E13.28658
G1 X88.552 Y92.24 E13.30273
G1 X88.665 Y91.893 E13.31487
G1 X88.862 Y91.341 E13.33436
G1 X88.933 Y91.158 E13.34089
G1 X89.113 Y90.723 E13.35655
G1 X89.201 Y90.523 E13.36382
G1 X89.579 Y89.751 E13.39241
G1 X89.825 Y89.296 E13.40961
G1 X90.227 Y88.613 E13.43597
G1 X90.261 Y88.56 E13.43806
G1 X90.832 Y87.756 E13.47086
