;FLAVOR:Marlin
;TIME:1742
;Filament used: 0.924393m
;Layer height: 0.2
;MINX:69.515
;MINY:81.512
;MINZ:0.2
;MAXX:150.485
;MAXY:138.488
;MAXZ:8
;Generated with Cura_SteamEngine 4.11.0
M140 S45
M105
M190 S45
M104 S205
M105
M109 S205
M82 ;absolute extrusion mode
; Ender 3 Custom Start G-code
G92 E0 ; Reset Extruder
G28 ; Home all axes
G1 Z2.0 F3000 ; Move Z Axis up little to prevent scratching of Heat Bed
G1 X0.1 Y20 Z0.3 F5000.0 ; Move to start position
G1 X0.1 Y200.0 Z0.3 F1500.0 E15 ; Draw the first line
G1 X0.4 Y200.0 Z0.3 F5000.0 ; Move to side a little
G1 X0.4 Y20 Z0.3 F1500.0 E30 ; Draw the second line
G92 E0 ; Reset Extruder
G1 Z2.0 F3000 ; Move Z Axis up little to prevent scratching of Heat Bed
G1 X5 Y20 Z0.3 F5000.0 ; Move over to prevent blob squish
G92 E0
G92 E0
G1 F1200 E-4
;LAYER_COUNT:40
;LAYER:0
M107
G0 F13200 X74.876 Y85.014 Z0.2
;TYPE:SKIRT
G1 F1200 E0
G1 F2700 X74.995 Y84.915 E0.00515
G1 X75.702 Y84.374 E0.03476
G1 X76.12 Y84.08 E0.05176
G1 X77.195 Y83.412 E0.09385
G1 X77.379 Y83.312 E0.10082
G1 X77.923 Y83.036 E0.12111
G1 X78.113 Y82.946 E0.1281
G1 X78.709 Y82.685 E0.14974
G1 X79.091 Y82.531 E0.16344
G1 X79.689 Y82.31 E0.18464
G1 X79.775 Y82.281 E0.18766
G1 X80.494 Y82.065 E0.21263
G1 X80.981 Y81.937 E0.22938
G1 X81.897 Y81.738 E0.26055
G1 X82.389 Y81.664 E0.2771
G1 X82.853 Y81.605 E0.29266
G1 X84.017 Y81.519 E0.33148
G1 X84.36 Y81.512 E0.34289
G1 X85.133 Y81.524 E0.3686
G1 X85.313 Y81.533 E0.3746
G1 X85.994 Y81.588 E0.39732
G1 X86.314 Y81.624 E0.40803
G1 X86.954 Y81.715 E0.42953
G1 X87.835 Y81.867 E0.45927
G1 X88.072 Y81.911 E0.46729
G1 X88.751 Y82.043 E0.49029
G1 X89.43 Y82.159 E0.5132
G1 X90.08 Y82.28 E0.53519
G1 X90.383 Y82.341 E0.54547
G1 X91.527 Y82.587 E0.58439
G1 X94.069 Y83.096 E0.67062
G1 X96.563 Y83.524 E0.75478
G1 X99.076 Y83.881 E0.8392
G1 X101.564 Y84.162 E0.92248
G1 X104.043 Y84.373 E1.00523
G1 X106.582 Y84.516 E1.08981
G1 X109.107 Y84.587 E1.17383
G1 X111.632 Y84.587 E1.25781
G1 X114.127 Y84.515 E1.34083
G1 X116.63 Y84.374 E1.42421
G1 X119.16 Y84.157 E1.50867
G1 X121.64 Y83.875 E1.59168
G1 X124.139 Y83.519 E1.67564
G1 X126.624 Y83.093 E1.7595
G1 X129.071 Y82.602 E1.84251
G1 X130.782 Y82.201 E1.90096
G1 X132.524 Y81.819 E1.96027
G1 X133.281 Y81.681 E1.98587
G1 X133.56 Y81.64 E1.99524
G1 X134.535 Y81.541 E2.02784
G1 X134.623 Y81.536 E2.03077
G1 X135.149 Y81.518 E2.04828
G1 X135.596 Y81.514 E2.06314
G1 X136.34 Y81.533 E2.0879
G1 X137.205 Y81.615 E2.1168
G1 X137.7 Y81.682 E2.13341
G1 X138.569 Y81.836 E2.16276
G1 X138.812 Y81.889 E2.17104
G1 X139.509 Y82.065 E2.19495
G1 X139.808 Y82.151 E2.20529
G1 X140.26 Y82.291 E2.22103
G1 X140.472 Y82.362 E2.22847
G1 X141.299 Y82.677 E2.2579
G1 X141.395 Y82.718 E2.26137
G1 X141.85 Y82.924 E2.27799
G1 X142.043 Y83.017 E2.28511
G1 X142.763 Y83.398 E2.31221
G1 X143.2 Y83.65 E2.32898
G1 X144.01 Y84.165 E2.36091
G1 X144.213 Y84.307 E2.36915
G1 X145.085 Y84.985 E2.40589
G1 X145.502 Y85.344 E2.42419
G1 X146.186 Y85.985 E2.45537
G1 X146.713 Y86.563 E2.48138
G1 X146.965 Y86.86 E2.49434
G1 X147.248 Y87.209 E2.50928
G1 X147.497 Y87.528 E2.52274
G1 X148.042 Y88.291 E2.55393
G1 X148.403 Y88.885 E2.57705
G1 X148.629 Y89.285 E2.59233
G1 X149.022 Y90.049 E2.6209
G1 X149.125 Y90.27 E2.62901
G1 X149.388 Y90.881 E2.65114
G1 X149.459 Y91.061 E2.65757
G1 X149.629 Y91.522 E2.67391
G1 X149.762 Y91.909 E2.68753
G1 X150.029 Y92.808 E2.71872
G1 X150.162 Y93.413 E2.73932
G1 X150.25 Y93.872 E2.75486
G1 X150.389 Y94.813 E2.7865
G1 X150.424 Y95.152 E2.79784
G1 X150.481 Y96.157 E2.83132
G1 X150.485 Y96.51 E2.84306
G1 X150.45 Y97.524 E2.8768
G1 X150.432 Y97.746 E2.88421
G1 X150.396 Y98.112 E2.89644
G1 X150.21 Y99.729 E2.95058
G1 X149.947 Y102.353 E3.03829
G1 X149.766 Y104.849 E3.12153
G1 X149.657 Y107.335 E3.20429
G1 X149.617 Y109.893 E3.28938
G1 X149.649 Y112.382 E3.37217
G1 X149.752 Y114.903 E3.45609
G1 X149.927 Y117.418 E3.53994
G1 X150.177 Y119.965 E3.62506
G1 X150.292 Y120.897 E3.6563
G1 X150.408 Y121.934 E3.691
G1 X150.46 Y122.558 E3.71183
G1 X150.479 Y123.151 E3.73156
G1 X150.482 Y123.692 E3.74956
G1 X150.44 Y124.717 E3.78368
G1 X150.421 Y124.933 E3.79089
G1 X150.275 Y125.996 E3.82658
G1 X150.179 Y126.508 E3.8439
G1 X149.839 Y127.847 E3.88985
G1 X149.731 Y128.183 E3.90159
G1 X149.516 Y128.791 E3.92304
G1 X149.442 Y128.982 E3.92985
G1 X149.256 Y129.433 E3.94608
G1 X149.169 Y129.631 E3.95327
G1 X148.775 Y130.436 E3.98308
G1 X148.528 Y130.893 E4.00036
G1 X148.11 Y131.603 E4.02776
G1 X148.076 Y131.656 E4.02986
G1 X147.483 Y132.491 E4.06392
G1 X147.243 Y132.798 E4.07688
G1 X146.957 Y133.148 E4.09191
G1 X146.747 Y133.395 E4.1027
G1 X145.878 Y134.307 E4.14459
G1 X145.603 Y134.564 E4.15711
G1 X145.148 Y134.966 E4.17731
G1 X145.026 Y135.068 E4.1826
G1 X144.298 Y135.626 E4.2131
G1 X143.88 Y135.92 E4.2301
G1 X142.786 Y136.598 E4.27291
G1 X142.603 Y136.697 E4.27983
G1 X142.19 Y136.909 E4.29527
G1 X142.028 Y136.988 E4.30127
G1 X141.314 Y137.306 E4.32726
G1 X140.904 Y137.471 E4.34196
G1 X140.383 Y137.665 E4.36045
G1 X140.296 Y137.695 E4.36351
G1 X139.506 Y137.935 E4.39097
G1 X139.019 Y138.063 E4.40772
G1 X138.103 Y138.262 E4.4389
G1 X137.611 Y138.336 E4.45545
G1 X137.147 Y138.395 E4.471
G1 X135.984 Y138.481 E4.50979
G1 X135.642 Y138.488 E4.52117
G1 X134.868 Y138.476 E4.54691
G1 X134.688 Y138.467 E4.55291
G1 X134.015 Y138.413 E4.57537
G1 X133.693 Y138.377 E4.58614
G1 X133.107 Y138.295 E4.60582
G1 X133.017 Y138.28 E4.60886
G1 X132.584 Y138.199 E4.62351
G1 X132.19 Y138.117 E4.63689
G1 X131.837 Y138.038 E4.64892
G1 X130.968 Y137.827 E4.67867
G1 X128.492 Y137.264 E4.76312
G1 X125.958 Y136.763 E4.84903
G1 X123.529 Y136.356 E4.93095
G1 X121.013 Y136.006 E5.01544
G1 X118.532 Y135.731 E5.09846
G1 X116.001 Y135.523 E5.18293
G1 X113.497 Y135.389 E5.26633
G1 X111.002 Y135.325 E5.34934
G1 X108.477 Y135.333 E5.43332
G1 X105.953 Y135.412 E5.51731
G1 X103.415 Y135.563 E5.60188
G1 X100.935 Y135.782 E5.68468
G1 X98.454 Y136.071 E5.76776
G1 X95.908 Y136.441 E5.85333
G1 X93.46 Y136.868 E5.93598
G1 X91.046 Y137.359 E6.01791
G1 X88.735 Y137.905 E6.09689
G1 X87.476 Y138.181 E6.13976
G1 X86.719 Y138.319 E6.16535
G1 X86.44 Y138.36 E6.17473
G1 X85.465 Y138.459 E6.20733
G1 X85.377 Y138.464 E6.21026
G1 X84.851 Y138.482 E6.22777
G1 X84.404 Y138.486 E6.24263
G1 X83.66 Y138.467 E6.26739
G1 X82.795 Y138.385 E6.29629
G1 X82.3 Y138.318 E6.3129
G1 X81.431 Y138.164 E6.34225
G1 X81.188 Y138.111 E6.35053
G1 X80.491 Y137.935 E6.37444
G1 X80.192 Y137.849 E6.38478
G1 X79.712 Y137.699 E6.40151
G1 X79.49 Y137.624 E6.4093
G1 X78.664 Y137.308 E6.43872
G1 X78.578 Y137.271 E6.44183
G1 X78.148 Y137.075 E6.45755
G1 X77.953 Y136.981 E6.46475
G1 X77.228 Y136.597 E6.49204
G1 X76.79 Y136.344 E6.50886
G1 X75.984 Y135.831 E6.54064
G1 X75.784 Y135.691 E6.54876
G1 X74.909 Y135.01 E6.58564
G1 X74.488 Y134.647 E6.60412
G1 X73.804 Y134.005 E6.63533
G1 X73.275 Y133.423 E6.66148
G1 X73.027 Y133.13 E6.67425
G1 X72.747 Y132.786 E6.689
G1 X72.496 Y132.464 E6.70258
G1 X71.952 Y131.7 E6.73378
G1 X71.586 Y131.096 E6.75727
G1 X71.362 Y130.698 E6.77246
G1 X70.996 Y129.989 E6.799
G1 X70.891 Y129.766 E6.80719
G1 X70.586 Y129.054 E6.83296
G1 X70.512 Y128.863 E6.83977
G1 X70.346 Y128.406 E6.85594
G1 X70.208 Y127.997 E6.8703
G1 X69.947 Y127.096 E6.9015
G1 X69.812 Y126.466 E6.92293
G1 X69.734 Y126.041 E6.9373
G1 X69.611 Y125.185 E6.96606
G1 X69.576 Y124.846 E6.9774
G1 X69.519 Y123.841 E7.01088
G1 X69.515 Y123.488 E7.02262
G1 X69.551 Y122.466 E7.05663
G1 X69.569 Y122.246 E7.06397
G1 X69.604 Y121.888 E7.07594
G1 X69.79 Y120.271 E7.13007
G1 X70.053 Y117.647 E7.21778
G1 X70.234 Y115.151 E7.30102
G1 X70.343 Y112.665 E7.38378
G1 X70.383 Y110.107 E7.46887
G1 X70.351 Y107.618 E7.55166
G1 X70.248 Y105.097 E7.63558
G1 X70.073 Y102.581 E7.71947
G1 X69.826 Y100.063 E7.80362
G1 X69.7 Y99.034 E7.8381
G1 X69.59 Y98.042 E7.8713
G1 X69.533 Y97.298 E7.89611
G1 X69.521 Y96.845 E7.91119
G1 X69.518 Y96.31 E7.92898
G1 X69.563 Y95.252 E7.9642
G1 X69.583 Y95.032 E7.97155
G1 X69.725 Y94.01 E8.00587
G1 X69.82 Y93.501 E8.02309
G1 X70.164 Y92.141 E8.06975
G1 X70.275 Y91.797 E8.08177
G1 X70.489 Y91.196 E8.10299
G1 X70.56 Y91.013 E8.10952
G1 X70.743 Y90.57 E8.12546
G1 X70.833 Y90.365 E8.13291
G1 X71.235 Y89.544 E8.16331
G1 X71.479 Y89.094 E8.18034
G1 X71.89 Y88.397 E8.20725
G1 X71.924 Y88.344 E8.20934
G1 X72.517 Y87.509 E8.24341
G1 X72.757 Y87.202 E8.25637
G1 X73.043 Y86.852 E8.2714
G1 X73.253 Y86.605 E8.28218
G1 X74.119 Y85.696 E8.32394
G1 X74.397 Y85.436 E8.3366
G1 X74.876 Y85.014 E8.35783
G0 F13200 X75.132 Y85.321
G1 F2700 X75.251 Y85.222 E8.36298
G1 X75.932 Y84.701 E8.3915
G1 X76.35 Y84.407 E8.4085
G1 X77.386 Y83.764 E8.44905
G1 X77.57 Y83.664 E8.45602
G1 X78.094 Y83.397 E8.47558
G1 X78.284 Y83.307 E8.48257
G1 X78.859 Y83.056 E8.50344
G1 X79.241 Y82.902 E8.51714
G1 X79.817 Y82.689 E8.53756
G1 X79.903 Y82.66 E8.54058
G1 X80.595 Y82.452 E8.56461
G1 X81.082 Y82.324 E8.58136
G1 X81.982 Y82.129 E8.61199
G1 X82.44 Y82.061 E8.62739
G1 X82.904 Y82.002 E8.64295
G1 X84.025 Y81.919 E8.68033
G1 X84.368 Y81.912 E8.69174
G1 X85.113 Y81.923 E8.71653
G1 X85.293 Y81.932 E8.72252
G1 X85.949 Y81.985 E8.74441
G1 X86.269 Y82.021 E8.75512
G1 X86.886 Y82.109 E8.77585
G1 X87.767 Y82.261 E8.80559
G1 X87.995 Y82.303 E8.8133
G1 X88.686 Y82.438 E8.83671
G1 X89.357 Y82.552 E8.85935
G1 X90.007 Y82.673 E8.88134
G1 X90.299 Y82.732 E8.89125
G1 X91.43 Y82.976 E8.92973
G1 X94.03 Y83.496 E9.01792
G1 X96.477 Y83.916 E9.1005
G1 X99.011 Y84.276 E9.18563
G1 X101.518 Y84.559 E9.26954
G1 X104.057 Y84.776 E9.35429
G1 X106.549 Y84.916 E9.43731
G1 X109.096 Y84.987 E9.52206
G1 X111.608 Y84.987 E9.60561
G1 X114.16 Y84.914 E9.69052
G1 X116.687 Y84.771 E9.7747
G1 X119.172 Y84.558 E9.85766
G1 X121.706 Y84.27 E9.94248
G1 X124.192 Y83.915 E10.026
G1 X126.734 Y83.48 E10.11178
G1 X129.116 Y83.002 E10.19259
G1 X130.867 Y82.592 E10.2524
G1 X132.609 Y82.21 E10.31172
G1 X133.339 Y82.077 E10.33639
G1 X133.618 Y82.036 E10.34577
G1 X134.558 Y81.94 E10.3772
G1 X134.646 Y81.935 E10.38013
G1 X135.152 Y81.918 E10.39697
G1 X135.599 Y81.914 E10.41184
G1 X136.318 Y81.932 E10.43576
G1 X137.152 Y82.012 E10.46363
G1 X137.647 Y82.079 E10.48024
G1 X138.484 Y82.226 E10.50851
G1 X138.727 Y82.279 E10.51678
G1 X139.398 Y82.449 E10.5398
G1 X139.697 Y82.535 E10.55015
G1 X140.133 Y82.671 E10.56534
G1 X140.345 Y82.742 E10.57278
G1 X141.142 Y83.045 E10.60114
G1 X141.238 Y83.086 E10.60461
G1 X141.676 Y83.285 E10.62061
G1 X141.869 Y83.378 E10.62773
G1 X142.563 Y83.744 E10.65383
G1 X143 Y83.996 E10.67061
G1 X143.781 Y84.493 E10.7014
G1 X143.984 Y84.635 E10.70964
G1 X144.824 Y85.288 E10.74502
G1 X145.241 Y85.647 E10.76333
G1 X145.912 Y86.277 E10.79394
G1 X146.408 Y86.822 E10.81845
G1 X146.66 Y87.119 E10.8314
G1 X146.933 Y87.455 E10.8458
G1 X147.182 Y87.774 E10.85926
G1 X147.716 Y88.523 E10.88986
G1 X148.055 Y89.082 E10.9116
G1 X148.281 Y89.482 E10.92688
G1 X148.66 Y90.218 E10.95442
G1 X148.763 Y90.439 E10.96253
G1 X149.016 Y91.028 E10.98385
G1 X149.087 Y91.208 E10.99028
G1 X149.251 Y91.652 E11.00603
G1 X149.384 Y92.039 E11.01964
G1 X149.645 Y92.922 E11.05026
G1 X149.769 Y93.488 E11.06953
G1 X149.857 Y93.947 E11.08508
G1 X149.991 Y94.854 E11.11557
G1 X150.026 Y95.193 E11.12691
G1 X150.081 Y96.162 E11.15919
G1 X150.085 Y96.515 E11.17093
G1 X150.051 Y97.492 E11.20344
G1 X150.033 Y97.714 E11.21085
G1 X149.999 Y98.066 E11.22261
G1 X149.81 Y99.71 E11.27765
G1 X149.548 Y102.318 E11.36483
G1 X149.368 Y104.804 E11.44773
G1 X149.257 Y107.347 E11.53239
G1 X149.217 Y109.892 E11.61705
G1 X149.249 Y112.403 E11.70058
G1 X149.352 Y114.911 E11.78406
G1 X149.531 Y117.486 E11.86991
G1 X149.775 Y119.98 E11.95326
G1 X149.894 Y120.942 E11.9855
G1 X150.01 Y121.979 E12.02021
G1 X150.06 Y122.58 E12.04026
G1 X150.079 Y123.153 E12.05933
G1 X150.082 Y123.694 E12.07733
G1 X150.041 Y124.682 E12.11022
G1 X150.022 Y124.898 E12.11743
G1 X149.881 Y125.922 E12.15181
G1 X149.785 Y126.434 E12.16913
G1 X149.459 Y127.725 E12.21342
G1 X149.351 Y128.061 E12.22516
G1 X149.143 Y128.646 E12.24581
G1 X149.069 Y128.837 E12.25262
G1 X148.89 Y129.272 E12.26827
G1 X148.803 Y129.47 E12.27546
G1 X148.423 Y130.246 E12.3042
G1 X148.176 Y130.703 E12.32148
G1 X147.773 Y131.387 E12.34788
G1 X147.739 Y131.44 E12.34998
G1 X147.168 Y132.244 E12.38278
G1 X146.928 Y132.551 E12.39574
G1 X146.653 Y132.889 E12.41023
G1 X146.443 Y133.136 E12.42101
G1 X145.605 Y134.015 E12.4614
G1 X145.33 Y134.272 E12.47392
G1 X144.891 Y134.659 E12.49339
G1 X144.769 Y134.761 E12.49868
G1 X144.068 Y135.299 E12.52807
G1 X143.65 Y135.593 E12.54507
G1 X142.596 Y136.246 E12.5863
G1 X142.413 Y136.345 E12.59322
G1 X142.015 Y136.55 E12.60811
G1 X141.853 Y136.629 E12.61411
G1 X141.164 Y136.935 E12.63918
G1 X140.754 Y137.1 E12.65388
G1 X140.253 Y137.287 E12.67167
G1 X140.166 Y137.317 E12.67473
G1 X139.405 Y137.548 E12.70118
G1 X138.918 Y137.676 E12.71793
G1 X138.018 Y137.871 E12.74856
G1 X137.56 Y137.939 E12.76396
G1 X137.096 Y137.998 E12.77952
G1 X135.976 Y138.081 E12.81687
G1 X135.634 Y138.088 E12.82825
G1 X134.888 Y138.077 E12.85306
G1 X134.708 Y138.068 E12.85906
G1 X134.059 Y138.015 E12.88071
G1 X133.737 Y137.979 E12.89149
G1 X133.172 Y137.901 E12.91046
G1 X133.082 Y137.886 E12.91349
G1 X132.665 Y137.808 E12.9276
G1 X132.271 Y137.726 E12.94099
G1 X131.931 Y137.649 E12.95258
G1 X131.071 Y137.44 E12.98202
G1 X128.553 Y136.868 E13.0679
G1 X126.069 Y136.376 E13.15213
G1 X123.579 Y135.959 E13.2361
G1 X121.076 Y135.611 E13.32015
G1 X118.538 Y135.33 E13.40508
G1 X116.056 Y135.126 E13.48791
G1 X113.528 Y134.991 E13.57211
G1 X110.976 Y134.926 E13.65702
G1 X108.464 Y134.934 E13.74057
G1 X105.918 Y135.013 E13.82529
G1 X103.424 Y135.161 E13.90839
G1 X100.89 Y135.385 E13.993
G1 X98.382 Y135.677 E14.07698
G1 X95.859 Y136.044 E14.16177
G1 X93.376 Y136.477 E14.2456
G1 X90.964 Y136.968 E14.32747
G1 X88.821 Y137.475 E14.40072
G1 X87.39 Y137.79 E14.44945
G1 X86.661 Y137.923 E14.4741
G1 X86.382 Y137.964 E14.48348
G1 X85.442 Y138.06 E14.51491
G1 X85.354 Y138.065 E14.51784
G1 X84.848 Y138.082 E14.53468
G1 X84.401 Y138.086 E14.54954
G1 X83.682 Y138.068 E14.57347
G1 X82.848 Y137.988 E14.60133
G1 X82.353 Y137.921 E14.61795
G1 X81.516 Y137.774 E14.64621
G1 X81.273 Y137.721 E14.65448
G1 X80.602 Y137.551 E14.67751
G1 X80.303 Y137.465 E14.68785
G1 X79.84 Y137.32 E14.70399
G1 X79.618 Y137.245 E14.71178
G1 X78.822 Y136.94 E14.74014
G1 X78.736 Y136.903 E14.74325
G1 X78.322 Y136.714 E14.75839
G1 X78.127 Y136.62 E14.76559
G1 X77.428 Y136.251 E14.79188
G1 X76.99 Y135.998 E14.8087
G1 X76.213 Y135.503 E14.83934
G1 X76.013 Y135.363 E14.84746
G1 X75.17 Y134.707 E14.88299
G1 X74.749 Y134.344 E14.90148
G1 X74.079 Y133.713 E14.93209
G1 X73.58 Y133.164 E14.95676
G1 X73.332 Y132.871 E14.96953
G1 X73.063 Y132.54 E14.98372
G1 X72.812 Y132.218 E14.9973
G1 X72.278 Y131.468 E15.02792
G1 X71.935 Y130.9 E15.04999
G1 X71.711 Y130.502 E15.06518
G1 X71.358 Y129.819 E15.09075
G1 X71.253 Y129.596 E15.09895
G1 X70.959 Y128.909 E15.1238
G1 X70.885 Y128.718 E15.13061
G1 X70.725 Y128.278 E15.14619
G1 X70.587 Y127.869 E15.16054
G1 X70.331 Y126.985 E15.19115
G1 X70.205 Y126.393 E15.21128
G1 X70.127 Y125.968 E15.22566
G1 X70.009 Y125.144 E15.25334
G1 X69.974 Y124.805 E15.26468
G1 X69.919 Y123.836 E15.29696
G1 X69.915 Y123.483 E15.3087
G1 X69.949 Y122.499 E15.34145
G1 X69.967 Y122.279 E15.34879
G1 X70.001 Y121.934 E15.36032
G1 X70.19 Y120.29 E15.41536
G1 X70.452 Y117.682 E15.50254
G1 X70.632 Y115.196 E15.58544
G1 X70.743 Y112.653 E15.6701
G1 X70.783 Y110.108 E15.75476
G1 X70.751 Y107.597 E15.83828
G1 X70.648 Y105.087 E15.92183
G1 X70.469 Y102.515 E16.00759
G1 X70.227 Y100.048 E16.09003
G1 X70.113 Y99.125 E16.12097
G1 X69.988 Y97.998 E16.15868
G1 X69.933 Y97.281 E16.1826
